!!!!SEGMENT: pl-wn--mus-iii-83-782-cim_zarebski-juliusz--trois-danses-galiciennes-op-2-no-1.krn
!!!cenid: 18xx:3544
!!!COM: Zarębski, Juliusz
!!!COM-rismid: pe30020631
!!!CDT:
!!!CNT:
!!!OTL: Trois Danses galiciennes
!!!PDT:
!!!AGN:
!!!SMS-siglum: PL-Wn
!!!SMS-shelfmark: Mus.III.83.782 Cim.
!!!SMS-shelfwork: W
!!!SMS-variant:
!!!SMS-altvar:
!!!NIFC-rismid:
!!!URL-scan: https://polona.pl/item/danses-polonaises-pour-piano-a-quatre-mains-ser-1-trois-danses-galiciennes-op-2-no-1,NTM4MjU5NzE/3/#info:metadata
!!!ONB-nifc:
!!!key: g
**kern	**dynam	**kern	**dynam	**kern	**kern	**dynam
*part2	*part2	*part2	*part2	*part1	*part1	*part1
*staff4	*staff4	*staff3	*	*staff2	*staff1	*
*	*	*ICklav	*	*	*	*
*	*	*Ipiano	*	*	*ICklav	*
*	*	*	*	*	*Ipiano	*
*	*	*I"Secondo.	*	*	*I"Primo.	*
*	*	*I'	*	*	*	*
*clefF4	*	*clefF4	*	*clefF4	*clefG2	*
*k[b-e-]	*	*k[b-e-]	*	*k[b-e-]	*k[b-e-]	*
*g:	*	*g:	*	*g:	*g:	*
*M2/4	*	*M2/4	*	*M2/4	*M2/4	*
=1	=1	=1	=1	=1	=1	=1
*	*	*	*	*^	*	*
*ped	*	*	*	*	*cue	*	*
!	!	!LO:TX:a:t=Allegretto con moto.:B	!	!LO:TX:a:t=Secondo	!	!LO:TX:a:t=Allegretto con moto.:B	!
8GGG/L 8GG	.	2r	pp	2r	8GGG\L 8GG	2r	.
8GGG/ 8GG	.	.	.	.	8GGG\J 8GG	.	.
8GGG/ 8GG	.	.	.	.	8GGG\L 8GG	.	.
8GGG/J 8GG	.	.	.	.	8GGG\J 8GG	.	.
=2	=2	=2	=2	=2	=2	=2	=2
*	*	*	*	*	*^	*	*
*	*	*	*	*	*tremolo	*cue	*	*
8GGG/L 8GG	.	8D\L	.	2rf	8GGG\L 8GG	8D/L	2r	.
8GGG/ 8GG	.	8D\	.	.	8GGG\ 8GG	8D/	.	.
8GGG/ 8GG	.	8D\	.	.	8GGG\ 8GG	8D/	.	.
8GGG/J 8GG	.	8D\J	.	.	8GGG\J 8GG	8D/J	.	.
=3	=3	=3	=3	=3	=3	=3	=3	=3
*	*	*	*	*	*	*tremolo	*	*
8GGG/L 8GG	.	8D\L 8G	.	2rf	8GGG\L 8GG	8D/L 8G	2r	.
8GGG/ 8GG	.	8D\ 8G	.	.	8GGG\ 8GG	8D/ 8G	.	.
8GGG/ 8GG	.	8D\ 8G	.	.	8GGG\ 8GG	8D/ 8G	.	.
8GGG/J 8GG	.	8D\J 8G	.	.	8GGG\J 8GG	8D/J 8G	.	.
*	*	*	*	*	*Xtremolo	*Xtremolo	*	*
*	*	*	*	*v	*v	*v	*	*
*	*	*	*	*clefG2	*	*
=4	=4	=4	=4	=4	=4	=4
8GGG/L 8GG	.	8D\L 8G	.	8d/L	2r	pp
8GGG/ 8GG	.	8D\ 8G	.	8d/	.	.
8GGG/ 8GG	.	8D\ 8G	.	8d/	.	.
8GGG/J 8GG	.	8D\J 8G	.	8d/J	.	.
*Xped	*	*	*	*	*	*
=5	=5	=5	=5	=5	=5	=5
8GGG/L 8GG	.	8D\L 8G	.	8d/L	(16g/LL	.
.	.	.	.	.	16a/	.
8GGG/ 8GG	.	8D\ 8G	.	8d/	16b-/	.
.	.	.	.	.	16cc/JJ	.
8GGG/ 8GG	.	8D\ 8A	.	8d/ 8f#X	8dd'\L)	.
8GGG/J 8GG	.	8D\J 8A	.	8d/J 8f#	8dd'\J	.
=6	=6	=6	=6	=6	=6	=6
8GGG/L 8GG	.	8D\L 8B-	.	8d/L 8g	8gg'\L	.
8GGG/ 8GG	.	8D\ 8B-	.	8d/ 8g	8dd'\	.
8GGG/ 8GG	.	8D\ 8F#X	.	8d/ 8a	(8.dd^\	.
8GGG/J 8GG	.	8D\J 8F#	.	8d/J 8a	.	.
.	.	.	.	.	16cc\Jk	.
=7	=7	=7	=7	=7	=7	=7
!LO:LB:g=original	!	!LO:LB:g=original	!	!	!	!
8GGG/L 8GG	.	8D\L 8G	.	8d/L 8g	8b-'/L)	.
!	!	!	!	!	!LO:TUP:b	!
8GGG/ 8GG	.	8D\ 8G	.	8d/	(24b-/L	.
.	.	.	.	.	24cc/	.
.	.	.	.	.	24b-/JJ	.
8GGG/ 8GG	.	8D\ 8A	.	8d/	8a'/L)	.
8GGG/J 8GG	.	8D\J 8A	.	8d/J	8f#X'/J	.
=8	=8	=8	=8	=8	=8	=8
!	!	!	!	!LO:LB:g=original	!LO:LB:g=original	!
8GGG/L 8GG	.	8D\L 8B-	.	8d/L	4g/	.
8GGG/ 8GG	.	8D\ 8B-	.	8d/	.	.
!	!	!	!	!LO:TX:a:t=m.g.	!	!
!	!	!	!	!LO:TX:t=P:problem=dźwięk d w obu rękach połączony klamrą	!	!
8GGG/ 8GG	.	8D\ 8A	.	8d/	4d/	.
8GGG/J 8GG	.	8D\J 8A	.	8d/J	.	.
=9	=9	=9	=9	=9	=9	=9
8GGG/L 8GG	.	8D\L 8G	.	8d/L	(16g/LL	.
.	.	.	.	.	16a/	.
8GGG/ 8GG	.	8D\ 8G	.	8d/	16b-/	.
.	.	.	.	.	16cc/JJ	.
8GGG/ 8GG	.	8D\ 8A	.	8d/ 8f#X	8dd'\L)	.
8GGG/J 8GG	.	8D\J 8A	.	8d/J 8f#	8dd'\J	.
=10	=10	=10	=10	=10	=10	=10
8GGG/L 8GG	.	8D\L 8B-	.	8d/L 8g	8gg'\L	.
8GGG/ 8GG	.	8D\ 8B-	.	8d/ 8g	8dd'\	.
8GGG/ 8GG	.	8D\ 8F#X	.	8d/ 8a	(8.dd^\	.
8GGG/J 8GG	.	8D\J 8F#	.	8d/J 8a	.	.
.	.	.	.	.	16cc\Jk	.
=11	=11	=11	=11	=11	=11	=11
8GGG/L 8GG	.	8D\L 8G	.	8d/L 8g	8b-'/L)	.
!	!	!	!	!	!LO:TUP:b	!
8GGG/ 8GG	.	8D\ 8G	.	8d/	(24b-/L	.
.	.	.	.	.	24cc/	.
.	.	.	.	.	24b-/JJ	.
8GGG/ 8GG	.	8D\ 8A	.	8d/	8a'/L)	.
8GGG/J 8GG	.	8D\J 8A	.	8d/J	8f#X'/J	.
=12	=12	=12	=12	=12	=12	=12
8GGG/L 8GG	.	8D\L 8G	.	8d/L	4g/	.
8GGG/ 8GG	.	8D\ 8G	.	8d/	.	.
8GG/	.	8D\ 8A	.	8d/	4a^>/	.
8GG/J	.	8D\J 8A	.	8d/J	.	.
=13	=13	=13	=13	=13	=13	=13
8FF/L	.	8D\L 8A	.	(16d/LL	(16dd\LL	.
.	.	.	.	16en/	16een\	.
8FF/	.	8D\ 8A	.	16f/	16ff\	.
.	.	.	.	16g/JJ	16gg\JJ	.
8EEn/ 8C#X	.	8G\ 8A	.	8a'/L)	8aa'\L)	.
8EE/J 8C#	.	8G\J 8A	.	8a'/J	8aa'\J	.
=14	=14	=14	=14	=14	=14	=14
!LO:LB:g=original	!	!LO:LB:g=original	!	!	!	!
8DD/L 8D	.	8F\L 8A	.	8dd'/L	8ddd'\L	.
8DD/ 8D	.	8F\ 8A	.	8a'/	8aa'\	.
8DD/ 8AA	.	8En\ 8c#X	.	(8.a^>/	(8.aa^\	.
8DD/J 8AA	.	8E\J 8c#	.	.	.	.
.	.	.	.	16g/Jk	16gg\Jk	.
=15	=15	=15	=15	=15	=15	=15
!	!	!	!	!LO:LB:g=original	!LO:LB:g=original	!
8DD/L 8AA	.	8F\L 8d	.	8f'/L)	8ff\L)'	.
!	!	!	!	!LO:TUP:b	!LO:TUP:a	!
8DD/ 8AA	.	8F\ 8A	.	(24f/L	(24ff\L	.
.	.	.	.	24g/	24gg\	.
.	.	.	.	24f/JJ	24ff\JJ	.
8DD/ 8AA	.	8G\ 8A	.	8en'/L)	8een'\L)	.
8DD/J 8AA	.	8G\J 8A	.	8c#X'/J	8cc#X'\J	.
=16	=16	=16	=16	=16	=16	=16
8DD/L 8AA	.	8F\L 8A	.	4d/	4dd\	.
8DD/ 8AA	.	8F\ 8A	.	.	.	.
8DD/ 8AA	.	8G\ 8A	.	4r	4a/	.
8DD/J 8AA	.	8G\J 8A	.	.	.	.
=17	=17	=17	=17	=17	=17	=17
8DD/L 8D	.	8F\L 8A	.	(16d/LL	(16dd\LL	.
.	.	.	.	16en/	16een\	.
8DD/ 8D	.	8F\ 8A	.	16f/	16ff\	.
.	.	.	.	16g/JJ	16gg\JJ	.
8CC/ 8C	.	8En\ 8A	.	8a'/L)	8aa'\L)	.
8CC/J 8C	.	8E\J 8A	.	8a'/J	8aa'\J	.
=18	=18	=18	=18	=18	=18	=18
8BBBn/L 8BBn	.	8F\L 8A	.	8dd'/L	8ddd'\L	.
8BBB/ 8BB	.	8F\ 8A	.	8a'/	8aa'\	.
8CC#X/ 8C#X	.	8En\ 8A	.	(8.a/^>	(8.aa^\	.
8CC#/J 8C#	.	8E\J 8A	.	.	.	.
.	.	.	.	16g/Jk	16gg\Jk	.
=19	=19	=19	=19	=19	=19	=19
8DD/L 8D	.	8F\L 8A	.	8f'/L)	8ff'\L)	.
8FFF'/ 8FF	.	8D'\ 8A	.	(16f/L	(16ff\L	.
.	.	.	.	16a/JJ	16aa\JJ	.
8r	.	8r	.	8g'/L)	8gg'\L)	.
8GGG'/J 8GG	.	8En'\J 8B-	.	8en'/J	8een'\J	.
=20	=20	=20	=20	=20	=20	=20
8r	.	8r	.	(16f/LL	(16ff\LL	.
.	.	.	.	16en/J	16een\J	.
8GGG#X'/ 8GG#X	.	8F'\ 8Bn	.	8d'/J)	8dd'\J)	.
!	!	!LO:TX:b:t=très\nlong:i	!	!	!LO:TX:b:t=très\nlong:i	!
4AAA;/ 4AA	.	4En;\ 4c#X	.	4e;</ 4a	4cc#X;\ 4aa	.
=21	=21	=21	=21	=21	=21	=21
!LO:LB:g=original	!	!LO:LB:g=original	!	!LO:LB:g=original	!LO:LB:g=original	!
16DD/LL	.	8F\L 8d	.	2r	8r	.
16AA/	.	.	.	.	.	.
.	.	8qf/	.	.	.	.
16DD/	.	8G^\ 8en	.	.	(16a/LL	.
16AA/JJ	.	.	.	.	16b-/JJ)	.
16AAA/LL	.	8F\ 8d	.	.	4a^>/	.
16AA/	.	.	.	.	.	.
16AAA/	.	8En\J 8c#X	.	.	.	.
16AA/JJ	.	.	.	.	.	.
=22	=22	=22	=22	=22	=22	=22
16DD/LL	.	8F\L 8d	.	8f/L	8dd\L	.
16AA/	.	.	.	.	.	.
.	.	.	.	.	8qff/	.
16DD/	.	8G^\	.	8en^>/ 8g	8een^\	.
16AA/JJ	.	.	.	.	.	.
16AAA/LL	.	8F\	.	8d/ 8f	8dd\	.
16AA/	.	.	.	.	.	.
16AAA/	.	8En\J	.	8c#X/J 8e	8cc#X\J	.
16AA/JJ	.	.	.	.	.	.
=23	=23	=23	=23	=23	=23	=23
8DD'/L	.	8F'\L 8A	.	8d'/L 8f	8dd'\L	<
8DD'/J 8AA	.	8F'\ 8d	.	8f'/	8ff'\	.
8r	.	8F'\ 8d	.	(8.a^>/	(8.aa^\	[
8AAA'/ 8AA	.	8En'\J 8c#X	.	.	.	.
.	.	.	.	16g/Jk	16gg\Jk	.
=24	=24	=24	=24	=24	=24	=24
8r	.	8F'\L 8d	.	8f'/L)	8ff'\L)	.
8DD'/L 8AA	.	8F'\ 8A	.	8f'/J	8ff'\J	.
8AAA'/ 8AA	.	8G'\ 8A	.	(16en/LL	(16een\LL	.
.	.	.	.	16c#X/J	16cc#X\J	.
8DD'/J 8AA	.	8F'\J 8A	.	8d'/J)	8dd'\J)	.
=25	=25	=25	=25	=25	=25	=25
!	!	!	!LO:HP:t=cresc.:ext=ud	!	!	!LO:HP:t=cresc.:ext=ud
16GG/LL	.	8G\L 8B-	<	8g/L	8r	<
16D/	.	.	.	.	.	.
.	.	.	.	8qb-/	.	.
16GG/	.	8A^\ 8c	.	8a^>/	(16dd\LL	.
16D/JJ	.	.	.	.	16ee-X\JJ	.
16DD/LL	.	8G\ 8B-	.	8g/	4dd^\)	.
16D/	.	.	.	.	.	.
16DD/	.	8F#X\J 8A	.	8f#X/J	.	.
16D/JJ	.	.	.	.	.	.
=26	=26	=26	=26	=26	=26	=26
16GG/LL	.	8G\L 8B-	.	8g/	8gg\L	.
16D/	.	.	.	.	.	.
.	.	.	.	.	8qbb-/	.
16GG/	.	8A^\ 8c	.	4d^>/ 4dd	8aa^\	.
16D/JJ	.	.	.	.	.	.
16DD/LL	.	8G\ 8B-	.	.	8gg\	.
16D/	.	.	.	.	.	.
16DD/	.	8F#X\J 8A	.	8d^>/ 8dd	8ff#X\J	.
16D/JJ	.	.	.	.	.	.
=27	=27	=27	=27	=27	=27	=27
!LO:LB:g=original	!	!LO:LB:g=original	!	!LO:LB:g=original	!LO:LB:g=original	!
8GG'/L	.	8G'\L 8B-	.	8g'/L	8gg'\L	.
8GG'/J 8D	.	8G'\J 8B-	.	8b-'/	8bb-'\	.
8r	.	8r	.	(8.dd^>/	(8.ddd^\	.
8CC'/ 8C	.	8G'\ 8e- 8g	.	.	.	.
.	.	.	.	16cc/Jk	16ccc\Jk	.
=28	=28	=28	=28	=28	=28	=28
8r	.	8r	.	8b-'/L)	8bb-'\L)	.
8DD'/L 8D	.	8B-'\L 8d	.	8b-'/J	8bb-'\J	.
8DD'/ 8D	.	8A'\ 8c	.	(16a/LL	(16aa\LL	.
.	.	.	.	16f#X/J	16ff#X\J	.
8GG'/J 8D	.	8B-'\J 8d	[[	8g'/J)	8gg'\J)	[[
=29	=29	=29	=29	=29	=29	=29
16CC/LL	.	8E-\L 8c	f <	8g/L	8cc\L	f
16GG/	.	.	.	.	.	.
.	.	.	.	.	8qee-/	.
16CC/	.	8F^\ 8d	.	8fn^</ 8g	8dd^\	.
16GG/JJ	.	.	.	.	.	.
16GGG/LL	.	8E-\ 8c	.	8e-/	8cc\	.
16GG/	.	.	.	.	.	.
16GGG/	.	8D\J 8Bn	.	8d/J 8g	8bn\J	.
16GG/JJ	.	.	.	.	.	.
=30	=30	=30	=30	=30	=30	=30
!	!	!	!	!LO:TX:t=P:problem=mixed beam	!	!
16CC/LL	.	8E-\L 8c	.	8e-/L	8cc/L	.
16GG/	.	.	.	.	.	.
16CC/	.	8F^\ 8d	.	16f>\Jk 16dd>\	16rccc	.
16GG/JJ	.	.	.	16rf>	16ff/Jk 16ddd	.
16GGG/LL	.	8E-\ 8c	.	16e->\LL 16cc>	16rccc	.
16GG/	.	.	.	16rf>	16ee-/LL 16ccc	.
16GGG/	.	8D\J 8Bn	[	16d>\JJ 16bn>	16rccc	.
16GG/JJ	.	.	.	16rf>	16dd/JJ 16bbn	.
=31	=31	=31	=31	=31	=31	=31
8CC'/L	.	8E-'\L 8c	ff	8e-'\L 8cc	8ee-'\L 8ccc	<
8CC'/J 8GG	.	8E-'\J 8c	.	8g'\ 8ee-	8gg'\ 8eee-	.
8r	.	8r	.	(8.ee-^\ 8.gg	(8.eee-^\ 8.ggg	[ sf
8GGG'/ 8GG	.	8G'\ 8e- 8g	.	.	.	.
.	.	.	.	16dd\Jk 16ff	16ddd\Jk 16fff	.
=32	=32	=32	=32	=32	=32	=32
8r	.	8r	.	8cc'\L) 8ee-	8ccc'\L) 8eee-	.
8AAA'/L 8AA	.	8G'\L 8e- 8g	<	8cc'\ 8ee-	8ccc'\J 8eee-	.
8BBBn'/ 8BBn	.	8G'\ 8d 8f 8g	.	8dd'\	(16ddd\LL	.
.	.	.	.	.	16gg\J	.
8CC'/J 8C	.	8G'\J 8e- 8g	[[	8cc'\J	8ccc'\J)	.
=33	=33	=33	=33	=33	=33	=33
!LO:PB:g=original	!	!LO:PB:g=original	!	!LO:PB:g=original	!LO:PB:g=original	!
8DD'/L 8D	.	8B-'^\L 8d	sf <	(8.g^>/L 8.b-	(8.gg^\L 8.bb-	.
(16DD/L	.	(16D\L	.	.	.	.
16EEn/JJ	.	16En\JJ	.	16dd/Jk	16ddd\Jk	.
16FF#X/LL	.	16F#X\LL	.	16cc/LL	16ccc\LL	.
16GG/	.	16G\	.	16b-/	16bb-\	.
16AA/	.	16A\	.	16a/	16aa\	.
16BB-/JJ	.	16B-\JJ	.	16g/JJ	16gg\JJ	.
=34	=34	=34	=34	=34	=34	=34
8C'/L)	.	8c'\L)	.	8b-'\L)	8bb-'\L)	.
8CC#X'^>/ 8C#X	.	8c#X'^\	.	8b-'\J	8bb-'\J	.
8DD'^>/ 8D	.	8d'^\	.	(16a^/LL	(16aa^\LL	.
.	.	.	.	16f#X/J	16ff#X\J	.
8EE-X'^>/J 8E-X	.	8e-X'^\J	[[	8g'/J)	8gg'\J)	sf
=35	=35	=35	=35	=35	=35	=35
8r	.	8r	.	(16a^/LL	(16aa^\LL	.
.	.	.	.	16f#X/J	16ff#X\J	.
8EE-'/ 8E-	.	8G'\ 8B-	sf	8g'/J)	8gg'\J)	sf
8r	.	8r	.	(16a^/LL	(16aa^\LL	.
.	.	.	.	16f#/J	16ff#\J	.
8DD'/ 8D	.	8Fn'\ 8B-	sf	8g'/J)	8gg'\J)	sf
=36	=36	=36	=36	=36	=36	=36
8r	.	8r	.	(16a^/LL	(16aa^\LL	.
.	.	.	.	16f#X/J	16ff#X\J	.
8CC'/ 8C	.	8En'\ 8B-	sf	8g'/J)	8gg'\J)	sf <
4r	.	(16A\LL	<	(16a\LL	(16aa\LL	.
.	.	16B-\	.	16b-\	16bb-\	.
.	.	16c\	.	16cc\	16ccc\	.
.	.	16d\JJ)	[[	16dd\JJ)	16ddd\JJ)	[[
=37	=37	=37	=37	=37	=37	=37
8FFF'/L 8FF	.	8c'^\L 8a	sfp	(8.cc^\L	(8.ccc^\L	fp
8FFF'/J 8FF	.	8c'\J 8a	.	.	.	.
.	.	.	.	16ffn\Jk	16fffn\Jk	.
8r	.	8r	.	16cc/LL	16ccc\LL	.
.	.	.	.	16b-/	16bb-\	.
8FFF'/ 8FF	.	8A'\ 8f	.	16a/	16aa\	.
.	.	.	.	16g/JJ	16gg\JJ	.
=38	=38	=38	=38	=38	=38	=38
!	!	!	!	!LO:LB:g=original	!LO:LB:g=original	!
.	.	.	.	8qa/)	(8qaa/)	.
8FFF'/L 8FF	.	8A'\L 8f	.	8cc'\L	8ccc'\L)	.
8FFF'/ 8FF	.	8A'\ 8f	.	8cc'\J	8ccc'\J	.
8FFF'/ 8FF	.	8G#X'\ 8f	.	(16bn^\LL	(16bbn^\LL	.
.	.	.	.	16dd\J	16ddd\J	.
8FFF'/J 8FF	.	8A'\J 8f	.	8cc'\J)	8ccc'\J)	.
=39	=39	=39	=39	=39	=39	=39
8FFF'/L 8FF	.	8c'^\L 8a	.	(8.cc^\L	(8.ccc^\L	.
8FFF'/J 8FF	.	8c'\J 8a	.	.	.	.
.	.	.	.	16ff\Jk	16fff\Jk	.
8r	.	8r	.	16cc/LL	16ccc\LL	.
.	.	.	.	16b-X/	16bb-X\	.
8FFF'/ 8FF	.	8A'\ 8f	.	16a/	16aa\	.
.	.	.	.	16g/JJ	16gg\JJ	.
=40	=40	=40	=40	=40	=40	=40
!LO:LB:g=original	!	!LO:LB:g=original	!	!	!	!
8FFF/L 8FF	.	8A-X'\L 8f	.	8cc'\L)	8ccc'\L)	.
8FFF/ 8FF	.	8A-'\ 8f	.	8cc\J	8ccc'\J	.
8FFF/ 8FF	.	8G'\ 8f	.	(16bn^\LL	(16bbn^\LL	.
.	.	.	.	16dd\J	16ddd\J	.
8FFF/J 8FF	.	8G'\J 8en	.	8cc'\J)	8ccc'\J)	.
=41	=41	=41	=41	=41	=41	=41
!	!	!	!LO:DY:t=sempre p	!	!	!
8FFF/L 8FF	.	(16d\LL	p	8r	2cccTT\	.
.	.	16f\J	.	.	.	.
8FFF/ 8FF	.	[8c^\J [8en	.	[4.cc^\	.	.
8FFF/ 8FF	.	16c\LL] 16e]	.	.	.	.
.	.	16f\J	.	.	.	.
8FFF/J 8FF	.	8g\J)	.	.	.	.
=42	=42	=42	=42	=42	=42	=42
8FFF/L 8FF	.	(16d\LL	.	8cc\]	2cccTTT\	.
.	.	16f\J	.	.	.	.
8FFF/ 8FF	.	[8c^\J [8en	.	[4.cc^\	.	.
8FFF/ 8FF	.	16c\LL] 16e]	.	.	.	.
.	.	16c\J	.	.	.	.
8FFF/J 8FF	.	[8d\J)	.	.	.	.
=43	=43	=43	=43	=43	=43	=43
8FFF^>/L 8FF	.	(16d\LL]	.	8cc\]	2cccTTT\	.
.	.	16f\J	.	.	.	.
8FFF/ 8FF	.	[8c^\J [8en	.	[4.cc^\	.	.
8FFF/ 8FF	.	16c\LL] 16e]	.	.	.	.
.	.	16f\J	.	.	.	.
8FFF/J 8FF	.	8g\J)	.	.	.	.
=44	=44	=44	=44	=44	=44	=44
8FFF/L 8FF	.	(16d\LL	.	8cc\]	2cccTTT\	.
.	.	16f\J	.	.	.	.
8FFF/ 8FF	.	[8c^\J [8en	.	[4.cc^\	.	.
8FFF/ 8FF	.	16c\LL] 16e]	.	.	.	.
.	.	16c\J	.	.	.	.
8FFF/J 8FF	.	[8d\J)	.	.	.	.
=45	=45	=45	=45	=45	=45	=45
!	!	!	!LO:HP:t=dim.:ext=ud	!LO:LB:g=original	!LO:LB:g=original	!LO:HP:t=dim.
8FFF^>/L 8FF	.	(16d\LL]	>	8cc\]	8r	>
.	.	16f\J	.	.	.	.
8FFF/ 8FF	.	[8c^\J [8en	.	[4.cc^\	(32ccc^\LLL	.
.	.	.	.	.	32ddd\	.
.	.	.	.	.	32ccc\	.
.	.	.	.	.	32ddd\JJ	.
8FFF/ 8FF	.	16c\LL] 16e]	.	.	8ccc'\)J	.
.	.	16c\J	.	.	.	.
8FFF/J 8FF	.	[8d\J)	.	.	8r	.
=46	=46	=46	=46	=46	=46	=46
!LO:LB:g=original	!	!LO:LB:g=original	!	!	!	!
8FFF^>/L 8FF	.	(16d\LL]	.	8cc\]	8r	.
.	.	16f\J	.	.	.	.
8FFF/ 8FF	.	[8c^\J [8e-X	.	[4.cc^\	(32ccc^\LLL	.
.	.	.	.	.	32ddd\	.
.	.	.	.	.	32ccc\	.
.	.	.	.	.	32ddd\JJ	.
8FFF/ 8FF	.	16c\LL] 16e-]	.	.	8ccc'\)J	.
.	.	16c\J	.	.	.	.
8FFF/J 8FF	.	[8d\J)	.	.	8r	.
=47	=47	=47	=47	=47	=47	=47
8FFF^>/L 8FF	.	(16d\LL]	.	8cc\]	2r	.
.	.	16f\J	.	.	.	.
8FFF/ 8FF	.	[8c^\J [8en	.	[4.cc^\	.	.
8FFF/ 8FF	.	16c\LL] 16e]	.	.	.	.
.	.	16c\J	.	.	.	.
8FFF/J 8FF	.	[8d\J)	.	.	.	.
=48	=48	=48	=48	=48	=48	=48
8FFF^>/L 8FF	.	(16d\LL]	.	8cc\]	2r	.
.	.	16f\J	.	.	.	.
8FFF/ 8FF	.	[8c^\J [8e-X	.	4.cc^\	.	.
8FFF/ 8FF	.	16c\LL] 16e-]	.	.	.	.
.	.	16c\J	.	.	.	.
8FFF#X/J 8FF#X	.	8d\J)	]]	.	.	.
=49	=49	=49	=49	=49	=49	=49
8GGG/L 8GG	.	8D\L 8G	pp	4r	(16g/LL	pp
.	.	.	.	.	16a/	.
8GGG/ 8GG	.	8D\ 8G	.	.	16b-/	.
.	.	.	.	.	16cc/JJ	.
8FFFn/ 8FFn	.	8D\ 8A	.	8d/L 8fn	8dd\L)	.
8FFF/J 8FF	.	8D\J 8A	.	8d/J 8f	8dd'\J	.
=50	=50	=50	=50	=50	=50	=50
8EEEn/L 8EEn	.	8D\L 8B-	.	8d/L 8g	8gg'\L	.
8EEE/ 8EE	.	8D\ 8B-	.	8d/ 8g	8dd'\	.
8FFF/ 8FF	.	8D\ 8A	.	8d/ 8a	(8.dd^\	.
8FFF#X/J 8FF#X	.	8D\J 8A	.	8d/J 8a	.	.
.	.	.	.	.	16cc\Jk	.
=51	=51	=51	=51	=51	=51	=51
8GGG/L 8GG	.	8D\L 8G	.	8d/L 8g	8b-/L)	.
!	!	!	!	!	!LO:TUP:b	!
8GGG/ 8GG	.	8D\ 8G	.	8d/	(24b-/L	.
.	.	.	.	.	24cc/	.
.	.	.	.	.	24b-/JJ	.
8GGG/ 8GG	.	8D\ 8A	.	8d/	8a/L)	.
8GGG/J 8GG	.	8D\J 8A	.	8d/J	8f#X/J	.
=52	=52	=52	=52	=52	=52	=52
!LO:LB:g=original	!	!LO:LB:g=original	!	!LO:LB:g=original	!LO:LB:g=original	!
8GGG/L 8GG	.	8D\L 8B-	.	8d/L	4g/	.
8GGG/ 8GG	.	8D\ 8B-	.	8d/	.	.
!	!	!	!	!LO:TX:a:t=m.g.	!LO:TX:t=P:problem=dźwięk d w obu rękach połączony klamrą	!
8AAA/ 8AA	.	8D\ 8A	.	8d/	4d^>/	.
8AAA/J 8AA	.	8D\J 8A	.	8d/J	.	.
=53	=53	=53	=53	=53	=53	=53
8BBB-'/L 8BB-	.	8B-'\L	.	(16g/LL	(16gg\LL	.
.	.	.	.	16a/	16aa\	.
8DD'/J 8D	.	8d'\J	.	16b-/	16bb-\	.
.	.	.	.	16cc/JJ	16ccc\JJ	.
8AAA'/L 8AA	.	8A'\L 8f#X	.	8dd\L)	8ddd\L)	.
8CC'/J 8C	.	8c'\J	.	8dd'\J	8ddd'\J	.
=54	=54	=54	=54	=54	=54	=54
8BBB-'/L 8BB-	.	8B-'\L 8g	.	8gg'\L	8ggg'\L	.
8DD'/J 8D	.	8d'\J	.	8dd'\	8ddd'\	.
8CC'/L 8C	.	8c'\L 8g	.	(8.dd^\	(8.ddd^\	.
8EE-'/J 8E-	.	8e-'\J	.	.	.	.
.	.	.	.	16cc\Jk	16ccc\Jk	.
=55	=55	=55	=55	=55	=55	=55
8DD'/L 8D	.	8B-'\L 8g	.	8b-/L)	8bb-\L)	.
!	!	!	!	!LO:TUP:b	!LO:TUP:a	!
8DD'/ 8D	.	8d'\	.	(24b-/L	(24bb-\L	.
.	.	.	.	24cc/	24ccc\	.
.	.	.	.	24b-/JJ	24bb-\JJ	.
8CC#X'/ 8C#X	.	8c#X'\	.	8a/L)	8aa\L)	.
8CCn'/J 8Cn	.	8cn'\J	.	8f#X'/J	8ff#X'\J	.
=56	=56	=56	=56	=56	=56	=56
8BBBn'/L 8BBn	.	8Bn'\L	.	4g/	4gg\	.
8BBB-X'/ 8BB-X	.	8B-X'\	.	.	.	.
8AAA'/ 8AA	.	8A'\	.	4d/	4dd\	.
8GGG'/J 8GG	.	8G'\J	.	.	.	.
=57	=57	=57	=57	=57	=57	=57
8FF#X'/L	.	8r	.	8a'\L	8aa'\L	.
8DD'^>/J	.	8D'^\ 8A 8c 8d	.	(16a^\L	(16aa^\L	.
.	.	.	.	16cc\JJ	16ccc\JJ	.
8GG'/L	.	8r	.	8b-'\L)	8bb-'\L)	.
8DD'^>/J	.	8D'^\ 8G 8B- 8d	.	8b-'\J	8bb-'\J	.
=58	=58	=58	=58	=58	=58	=58
!LO:TX:a:t=sempre stacc.:i	!	!	!	!	!	!
8AA'/L	.	8r	.	8a'\L	8aa'\L	.
8DD'^>/J	.	8D'^\ 8F#X 8c 8d	.	(16a^\L	(16aa^\L	.
.	.	.	.	16cc\JJ	16ccc\JJ	.
8BB-'/L	.	8r	.	8b-'\L)	8bb-'\L)	.
8DD'^>/J	.	8D'^\ 8G 8B- 8d	.	8b-'\J	8bb-'\J	.
=59	=59	=59	=59	=59	=59	=59
!LO:LB:g=original	!	!LO:LB:g=original	!	!LO:LB:g=original	!LO:LB:g=original	!
8C/L	.	8r	.	(16a/LL	(16aa^\LL	.
.	.	.	.	16g/J	16gg\J	.
8DD^>/	.	8D'^\ 8A 8c 8d	.	8f#X'/J)	8ff#X'\J)	.
8BB-/	.	8r	.	4g^>/	4gg^\	.
8DD^>/J	.	8D'^\ 8G 8B- 8d	.	.	.	.
=60	=60	=60	=60	=60	=60	=60
8AA/L	.	8r	.	8d'/L	8dd'\L	.
8DD^>/	.	8D'^\ 8F#X 8c	.	8d'/J	8dd'\J	.
8GG/	.	8r	.	4g^>/	4gg^\	.
8DD^>/J	.	8D'^\ 8G 8B-	.	.	.	.
=61	=61	=61	=61	=61	=61	=61
8FF#X/L	.	8r	.	8a'/L	8aa'\L	.
8DD^>/J 8D	.	8A'^\ 8c 8d	.	(16a^</L	(16aa^\L	.
.	.	.	.	16cc/JJ	16ccc\JJ	.
8GG/L	.	8r	.	8b-'/L)	8bb-'\L)	.
8DD^>/J 8D	.	8G'^\ 8B- 8e-	.	8g'/J 8b-	8gg'\J 8bb-	.
=62	=62	=62	=62	=62	=62	=62
8AA/L	.	8r	.	8a'/L	8aa'\L	.
8DD^>/J 8D	.	8F#X'^\ 8c 8d	.	(16a/L	(16aa^\L	.
.	.	.	.	16cc/JJ	16ccc\JJ	.
8BB-/L	.	8r	.	8b-'/L)	8bb-'\L)	.
8DD^>/J 8D	.	8G'^\ 8B- 8e-	.	8g'/J 8b-	8gg'\J 8bb-	.
=63	=63	=63	=63	=63	=63	=63
8C/L	.	8r	.	(16a^>/LL	(16aa^\LL	.
.	.	.	.	16g/J	16gg\J	.
8DD^>/J	.	8D'^\ 8A 8c 8d	.	8f#X'/J)	8ff#X'\J)	.
8BB-/L	.	8r	.	4g^>/	4gg^\	.
8DD^>/J	.	8En'^\ 8G 8c#X	.	.	.	.
=64	=64	=64	=64	=64	=64	=64
8AA/L	.	8r	.	8d'/L	8dd'\L	.
8DD^>/J	.	8D'^\ 8F#X 8cn	.	8d'/J	8dd'\J	.
8GG/L	.	8r	.	4g^>/	4gg^\	.
8DD^>/J	.	8D'^\ 8G 8B-	.	.	.	.
*kcancel	*	*kcancel	*	*kcancel	*kcancel	*
=65||	=65||	=65||	=65||	=65||	=65||	=65||
*k[f#]	*	*k[f#]	*	*k[f#]	*k[f#]	*
*8ba	*	*	*	*	*	*
!	!	!	!LO:HP:t=cresc. molto	!	!	!LO:HP:t=cresc. molto
8FFF#'/L	.	8r	<	8a\L	8dd\L 8aa	<
8DDD'^>/	.	8D'^\ 8A 8c 8d	.	(16a^\L	(16dd^\L 16aa	.
.	.	.	.	16cc\JJ	16ccc\JJ	.
8GGG'/	.	8r	.	8b\L)	8bb\L)	.
8DDD'^>/J	.	8D'^\ 8G 8B 8d	.	8b^\J	8dd^\J 8bb	.
=66	=66	=66	=66	=66	=66	=66
!LO:LB:g=original	!	!LO:LB:g=original	!	!LO:LB:g=original	!LO:LB:g=original	!
8AAA'/L	.	8r	.	8a'\L	8dd'\L 8aa	.
8DDD'^>/	.	8D'^\ 8F# 8c 8d	.	(16a^\L	(16dd^\L 16aa	.
.	.	.	.	16cc\JJ	16ccc\JJ	.
8BBB'/	.	8r	.	8b\L)	8bb\L)	.
8DDD'^>/J	.	8D'^\ 8G 8B 8d	.	8b^\J	8dd^\J 8bb	.
=67	=67	=67	=67	=67	=67	=67
8AAA'/L	.	8r	f	(16a^>/LL	(16dd^\LL 16aa	f
.	.	.	.	16g/J	16gg\J	.
8DDD'^>/	.	8D'^\ 8A 8c 8d	.	8f#X'/J)	8ff#X'\J)	.
8BBB'/	.	8r	.	4g^>/	4dd^\ 4gg	.
8DDD'^>/J	.	8D'^\ 8G 8B 8d	.	.	.	.
=68	=68	=68	=68	=68	=68	=68
8AAA'/L	.	8r	.	8d'/L 8dd	8ddd'\L	.
8DDD'^>/	.	8D'^\ 8F# 8c	.	8d'/J 8dd	8ddd'\J	.
8GGG'/	.	8r	.	4g^>/	4gg^\ 4ggg	.
8DDD'^>/J	.	8D'^\ 8G 8B 8d	.	.	.	.
=69	=69	=69	=69	=69	=69	=69
*	*	*	*	*	*8va	*
8FFF#'/L	.	8D'^\L 8A 8c 8d	ff	8dd'\L 8aa	8ddd\L 8aaa	ff
8DDD'^>/	.	8D'^\J 8A 8c 8d	.	(16dd^>\L 16aa	(16ddd^\L 16aaa	.
.	.	.	.	16ccc\JJ	16cccc\JJ	.
8GGG'/	.	8r	.	8bb\L)	8bbb\L)	.
8DDD'^>/J	.	8G'^\ 8B 8d 8g	.	8dd^>\J 8bb	8ddd^\J 8bbb	.
=70	=70	=70	=70	=70	=70	=70
8AAA'/L	.	8D'^\L 8c 8d 8f#	.	8dd'\L 8aa	8ddd'\L 8aaa	.
8DDD'^>/	.	8D'^\J 8c 8d 8f#	.	(16dd^>\L 16aa	(16ddd^\L 16aaa	.
.	.	.	.	16ccc\JJ	16cccc\JJ	.
8BBB'/	.	4G'^\ 4B 4d 4g	sf	8bb\L)	8bbb\L)	.
8DDD'^>/J	.	.	.	8dd^>\J 8bb	8ddd^\J 8bbb	.
*	*	*clefG2	*	*	*	*
=71	=71	=71	=71	=71	=71	=71
8FFF#'/L	.	8r	.	8dd'\L 8aa	8ddd'\L 8aaa	.
8DDD'^>/	.	8c'^>/ 8d 8a 8cc	sf	(16dd^>\L 16aa	(16ddd^\L 16aaa	.
.	.	.	.	16ccc\JJ	16cccc\JJ	.
8GGG'/	.	8r	.	8bb\L)	8bbb\L)	.
8DDD'^>/J	.	8B'^>/ 8d 8g 8b	sf	8dd^>\J 8bb	8ddd^\J 8bbb	.
=72	=72	=72	=72	=72	=72	=72
8FFF#'/L	.	8r	.	(16dd^>\LL 16aa	(16ddd^\LL 16aaa	.
.	.	.	.	16ccc\	16cccc\	.
8DDD'^>/J	.	8c^>/ 8d 8a 8cc	sf	16bb\	16bbb\	.
.	.	.	.	16aa\JJ	16aaa\JJ	.
*X8ba	*	*	*	*	*	*
16r	.	16r	.	16gg\LL	16ggg\LL	.
(16D\LL	.	(16d/LL	.	16ff#\	16fff#\	.
16E\	.	16e/	.	16ee\	16eee\	.
16F#\JJ	.	16f#/JJ	.	16dd\JJ)	16ddd\JJ)	.
*	*	*	*	*	*X8va	*
=73||	=73||	=73||	=73||	=73||	=73||	=73||
*	*	*	*	*	*8va	*
!LO:PB:g=original	!	!LO:PB:g=original	!	!LO:PB:g=original	!LO:PB:g=original	!
8G'\)	.	8g'/)	ff	8gg'\L	8ggg'\L	ff
!	!	!LO:TX:a:t=ten.:i	!	!	!	!
.	.	.	.	(8qff#/	(8qfff#/	.
4E^\ 4G	.	4e^>/ 4g	sf	8gg'^\)	8ggg'^\)	sf
.	.	.	.	8gg'\	8ggg'\	.
!	!	!LO:TX:a:t=ten.:i	!	!	!	!
.	.	.	.	(8qff#/	(8qfff#/	.
[8D^\ [8F# [8G	.	[8d^>/ [8f# [8g	sf	8gg'^\J)	8ggg'^\J)	sf
=74	=74	=74	=74	=74	=74	=74
8D\] 8F#] 8G]	.	8d/] 8f#] 8g]	.	8gg'\L	8ggg'\L	.
!	!	!LO:TX:a:t=ten.:i	!	!	!	!
.	.	.	.	(8qff#/	(8qfff#/	.
4C^\ 4E 4G	.	4c^>/ 4e 4g	sf	8gg'^\)	8ggg'^\)	sf
.	.	.	.	8ff#'\	8fff#'\	.
!	!	!LO:TX:a:t=ten.:i	!	!	!	!
8BB^\ 8D 8G	.	8B^>/ 8d 8g	sf	8dd'\J	8ddd'\J	.
=75	=75	=75	=75	=75	=75	=75
8r	.	8r	.	8ee'\L	8eee'\L	<
8CC'/L 8C	.	8G'/L 8c 8e 8g	.	8gg'\J	8ggg'\J	.
8CC'/J 8C	.	8G'/J 8c 8e 8g	.	(16aa^\LL	(16aaa^\LL	[ sf
.	.	.	.	16gg\	16ggg\	.
8r	.	8r	.	16ff#\	16fff#\	.
.	.	.	.	16ee\JJ	16eee\JJ	.
=76	=76	=76	=76	=76	=76	=76
8GGG'/L 8GG	.	8G'/L	<	8dd'\L)	8ddd'\L)	.
8BBB'/J 8BB	.	8B'/J	.	8dd'\	8ddd'\	.
(16D^/LL	.	(16d/LL	[ sf	8b'\	8bb'\	.
16C/	.	16c/	.	.	.	.
16BB/	.	16B/	.	8g'\J	8gg'\J	.
16AA/JJ	.	16A/JJ	.	.	.	.
=77	=77	=77	=77	=77	=77	=77
8GG'/)	.	8G'/)	.	8g'\L	8gg'\L	.
.	.	.	.	(8qff#/	(8qfff#/	.
4EE^/ 4E	.	4G^>/ 4e 4g	sf sf	8gg'^\)	8ggg'^\)	sf
.	.	.	.	8gg'\	8ggg'\	.
.	.	.	.	(8qff#/	(8qfff#/	.
[8DD^/ [8D	.	[8G^>/ [8d [8f# [8g	sf sf	8gg'\J)	8ggg'\J)	sf
=78	=78	=78	=78	=78	=78	=78
8DD/] 8D]	.	8G/] 8d] 8f#] 8g]	.	8gg'\L	8ggg'\L	.
.	.	.	.	(8qff#/	(8qfff#/	.
4CC/ 4C^>	.	4G^>/ 4c 4e 4g	sf	8gg'^\)	8ggg'^\)	sf
.	.	.	.	8ff#'\	8fff#'\	.
8BBB/ 8BB^>	.	8G^>/ 8d 8g	sf	8dd'\J	8ddd'\J	.
=79	=79	=79	=79	=79	=79	=79
8r	.	8r	.	8ee'\L	8eee'\L	<
8AAA'/L 8AA	.	8G'/L 8A 8c#X 8g	.	8gg'\J	8ggg'\J	.
8AAA'/J 8AA	.	8G'/J 8A 8c# 8g	.	(16aa^\LL	(16aaa^\LL	[ sf
.	.	.	.	16gg\	16ggg\	.
8r	.	8r	.	16ff#\	16fff#\	.
.	.	.	.	16ee\JJ	16eee\JJ	.
*	*	*	*	*	*X8va	*
*	*	*clefF4	*	*	*	*
=80	=80	=80	=80	=80	=80	=80
!LO:LB:g=original	!	!LO:LB:g=original	!	!	!	!
!LO:TX:t=P:problem=mixed beam	!	!	!	!LO:LB:g=original	!LO:LB:g=original	!
8ryy	.	8FFF#<'/ 8FF#<L	.	8dd'\L)	8ddd'\L)	.
8ryy	.	8D'\ 8A 8cn 8d	.	(16dd^\L	(16ddd^\L	.
.	.	.	.	16ee\JJ	16eee\JJ	.
8ryy	.	8GGG<'/ 8GG<	.	16dd\LL	16ddd\LL	.
.	.	.	.	16b\	16bb\	.
8ryy	.	8D'\ 8G 8B 8dJ	.	16g\	16gg\	.
.	.	.	.	16b\JJ	16bb\JJ	.
=81	=81	=81	=81	=81	=81	=81
!	!	!	!LO:DY:t=sempre ff	!	!	!LO:DY:t=sempre ff:b
8r	.	8r	ff <	8a'>/L)	8aa'\L)	ff <
8DDD/L 8DD	.	8D\L	.	8d/ 8a 8cc	8aa\ 8ccc	.
8DDD#X/ 8DD#X	.	8D#X\	.	8d/ 8a 8cc	8aa\ 8ccc	.
8EEE/J 8EE	.	8E\J	.	8d/J 8a 8cc	8aa\J 8ccc	.
=82	=82	=82	=82	=82	=82	=82
8FFFn/L 8FFn	.	8Fn\L	.	8d/L 8a 8cc	8aa\L 8ccc	.
8FFF#X/J 8FF#X	.	8F#X\J	.	8d/ 8a 8cc	8aa\ 8ccc	.
4GGG^>/ 4GG	.	4G^\	[ sf	(8d^/ 8g 8b	(8gg^\ 8bb	[ sf
.	.	.	.	8dd'/J)	8ddd'\J)	.
=83	=83	=83	=83	=83	=83	=83
8r	.	8r	.	8f#/L 8a	8ff#\L 8aa	<
8DDDn/L 8DDn	.	8Dn\L	<	8d/ 8a 8cc	8aa\ 8ccc	.
8DDD#X/ 8DD#X	.	8D#X\	.	8d/ 8a 8cc	8aa\ 8ccc	.
8EEE/J 8EE	.	8E\J	.	8d/J 8a 8cc	8aa\J 8ccc	.
=84	=84	=84	=84	=84	=84	=84
8FFFn/L 8FFn	.	8Fn\L	.	8d/L 8a 8cc	8aa\L 8ccc	.
8FFF#X/J 8FF#X	.	8F#X\J	.	8d/ 8a 8cc	8aa\ 8ccc	.
4GGG^>/ 4GG	.	4G^\	[ sf	(8d^/ 8g 8b	(8gg^\ 8bb	[ sf
.	.	.	.	8dd'/J)	8ddd'\J)	.
=85	=85	=85	=85	=85	=85	=85
8r	.	8r	.	8cc'\L	8ccc'\L	.
8CC'^>/ 8C	.	8G'^\ 8e 8g	.	(16ee\L	(16eee\L	.
.	.	.	.	16gg\JJ	16ggg\JJ	.
8r	.	8r	.	16ff#^\LL	16fff#^\LL	.
.	.	.	.	16aa\	16aaa\	.
8CC'^>/ 8C	.	8G'^\ 8e 8g	.	16gg\	16ggg\	.
.	.	.	.	16ee\JJ	16eee\JJ	.
=86	=86	=86	=86	=86	=86	=86
!LO:LB:g=original	!	!LO:LB:g=original	!	!	!	!
!LO:TX:t=P:problem=mixed beam	!	!	!	!	!	!
8ryy	.	8FFF#<'/ 8FF#<L	.	8dd'\L)	8ddd'\L)	.
8ryy	.	8D'\ 8A 8c 8d	.	(16dd\L	(16ddd'\L	.
.	.	.	.	16ee\JJ	16eee'\JJ	.
8ryy	.	8GGG<'/ 8GG<	.	16dd^\LL	16ddd'^\LL	.
.	.	.	.	16b\	16bb'\	.
8ryy	.	8D'\ 8G 8B 8dJ	.	16g\	16gg'\	.
.	.	.	.	16b\JJ	16bb'\JJ	.
=87	=87	=87	=87	=87	=87	=87
!LO:TX:t=P:problem=mixed beam	!	!	!	!LO:LB:g=original	!LO:LB:g=original	!
8ryy	.	8GGG<'/ 8GG<L	.	8cc'\L)	8ccc'\L)	.
8ryy	.	8G'\ 8e 8g	.	(16ee^\L	(16eee^\L	.
.	.	.	.	16gg\JJ	16ggg\JJ	.
8ryy	.	8GGG<'/ 8GG<	.	16ff#\LL	16fff#\LL	.
.	.	.	.	16aa\	16aaa\	.
8ryy	.	8G'\ 8e-X 8gJ	.	16gg\	16ggg\	.
.	.	.	.	16ee-X\JJ	16eee-X\JJ	.
=88	=88	=88	=88	=88	=88	=88
8FFF#'/L 8FF#	.	8r	.	8dd'\L)	8ddd'\L)	.
8DDD'/ 8DD	.	8D'^\L 8A 8c 8d	.	(16dd^\L	(16ddd^\L	.
.	.	.	.	16een\JJ	16eeen\JJ	.
8GGG'/J 8GG	.	8D'^\J 8G 8B 8d	sf	16dd\LL	16ddd\LL	.
.	.	.	.	16b\	16bb\	.
8r	.	8r	.	16g\	16gg\	.
.	.	.	.	16b\JJ)	16bb\JJ)	.
=89	=89	=89	=89	=89	=89	=89
*	*	*	*	*	*8va	*
*	*	*^	*	*	*	*
!	!	!	!	!	!	!	!LO:DY:t=sempre ff
8r	.	4g^/	8G\L	sf	8r	8r	ff
4EE^>/ 4E	.	.	8e\J	.	16gg\LL	16ggg\LL	.
.	.	.	.	.	16ff#\JJ	16fff#\JJ	.
.	.	4g^/	8G\L	sf	16gg^\LL	16ggg^\LL	.
.	.	.	.	.	16ff#\	16fff#\	.
[8DD^>/ [8D	.	.	8d\J 8f#	.	16gg\	16ggg\	.
.	.	.	.	.	16ff#\JJ	16fff#\JJ	.
=90	=90	=90	=90	=90	=90	=90	=90
8DD/] 8D]	.	4g^/	8G\L	sf	16gg^\LL	16ggg^\LL	.
.	.	.	.	.	16ff#\	16fff#\	.
4CC^>/ 4C	.	.	8c\J 8e	.	16gg\	16ggg\	.
.	.	.	.	.	16ff#\JJ	16fff#\JJ	.
.	.	4g^/	8G\L	sf	16gg^\LL	16ggg^\LL	.
.	.	.	.	.	16ff#\	16fff#\	.
8BBB^>/ 8BB	.	.	8d\J	.	16gg\	16ggg\	.
.	.	.	.	.	16ff#\JJ	16fff#\JJ	.
*	*	*v	*v	*	*	*	*
*	*	*	*	*	*X8va	*
=91	=91	=91	=91	=91	=91	=91
8r	.	8r	.	8ee'\L	8eee'\L	.
8AAA'^>/L 8AA	.	8G'^\L 8A 8c#X 8g	.	8gg'\J	8ggg'\J	.
8AAA'^>/J 8AA	.	8G'^\J 8A 8c# 8e	.	(16aa^\LL	(16aaa^\LL	sf
.	.	.	.	16gg\	16ggg\	.
8r	.	8r	.	16ff#\	16fff#\	.
.	.	.	.	16ee\JJ	16eee\JJ	.
=92	=92	=92	=92	=92	=92	=92
!LO:LB:g=original	!	!LO:LB:g=original	!	!	!	!
8FFF#'/L 8FF#	.	8F#'\L	<	8dd'\L)	8ddd'\L)	.
8AAA'/J 8AA	.	8A'\J	.	8dd'\	8ddd'\	.
(16D^/LL	.	(16d^\LL	[ sf	8b'\	8bb'\	.
16Cn/	.	16cn\	.	.	.	.
16BB/	.	16B\	.	8g'\J	8gg'\J	.
16AA/JJ	.	16A\JJ	.	.	.	.
=93	=93	=93	=93	=93	=93	=93
*	*	*	*	*	*8va	*
*	*	*^	*	*	*	*
!	!	!	!	!	!LO:LB:g=original	!LO:LB:g=original	!
8GG'/)	.	4ryy	8G'\L)	.	8r	8r	.
4EE^>/ 4E	.	.	8e\J	.	16gg\LL	16ggg\LL	.
.	.	.	.	.	16ff#\JJ	16fff#\JJ	.
.	.	4g^/	8G\L	sf	16gg^\LL	16ggg^\LL	.
.	.	.	.	.	16ff#\	16fff#\	.
[8DD^>/ [8D	.	.	8d\J 8f#	.	16gg\	16ggg\	.
.	.	.	.	.	16ff#\JJ	16fff#\JJ	.
=94	=94	=94	=94	=94	=94	=94	=94
8DD/] 8D]	.	4g^/	8G\L	sf	16gg^\LL	16ggg^\LL	.
.	.	.	.	.	16ff#\	16fff#\	.
4CC^>/ 4C	.	.	8c\J 8e	.	16gg\	16ggg\	.
.	.	.	.	.	16ff#\JJ	16fff#\JJ	.
.	.	4g^/	8G\L	sf	16gg^\LL	16ggg^\LL	.
.	.	.	.	.	16ff#\	16fff#\	.
8BBB^>/ 8BB	.	.	8B\J 8d	.	16gg\	16ggg\	.
.	.	.	.	.	16ff#\JJ	16fff#\JJ	.
*	*	*v	*v	*	*	*	*
=95	=95	=95	=95	=95	=95	=95
8r	.	8G'\L 8g	<	16gg^\LL	16ggg^\LL	<
.	.	.	.	16ff#\	16fff#\	.
8AAA'/L 8AA	.	8G'\J 8A 8c#X 8g	.	16gg\	16ggg\	.
.	.	.	[	16aa\JJ	16aaa\JJ	.
8AAA'/J 8AA	.	(16G^\LL 16A 16c# 16a	sf	16ccc#X\LL	16cccc#X\LL	[
.	.	16g\	.	16eee\	16eeee\	.
8r	.	16f#\	.	16ccc#\	16cccc#\	.
.	.	16e\JJ	.	16aa\JJ	16aaa\JJ	.
=96	=96	=96	=96	=96	=96	=96
8BBB'/ 8BB	.	8d'\L)	.	16ddd\LL	16dddd\LL	.
.	.	.	.	16bb\	16bbb\	.
8r	.	8D'\ 8G 8d	.	16gg\	16ggg\	.
.	.	.	.	16bb\JJ	16bbb\JJ	.
8GGG'/ 8GG	.	8B'\	.	16dd\LL	16ddd\LL	.
.	.	.	.	16gg\	16ggg\	.
8r	.	8D'\J 8G 8B	.	16bb\	16bbb\	.
.	.	.	.	16ddd\JJ	16dddd\JJ	.
=97	=97	=97	=97	=97	=97	=97
8DD'/L 8D	.	8r	.	8aa\L	8aaa\L	ff <
8GG'^>/ 8G	.	(16g^\LL	<	8cc\ 8aa	8ccc\ 8aaa 8cccc	.
.	.	16f#\)J	.	.	.	.
8FF#'/ 8F#	.	(16f#\L	.	8cc\ 8aa	8ccc\ 8aaa 8cccc	.
.	.	16fn\)J	.	.	.	.
8FFn'/J 8Fn	.	(16f\L	.	8cc\J 8aa	8ccc\J 8aaa 8cccc	.
.	.	16e\JJ)	.	.	.	.
=98	=98	=98	=98	=98	=98	=98
!LO:LB:g=original	!	!LO:LB:g=original	!	!	!	!
8EE'/L 8E	.	(16e\LL	.	8cc\L 8aa	8ccc\L 8aaa 8cccc	.
.	.	16e-X\)J	.	.	.	.
8EE-X'/J 8E-X	.	(16e-\L	.	8cc\ 8aa	8ccc\ 8aaa 8cccc	.
.	.	16d\JJ)	.	.	.	.
!LO:TX:a:t=ten.:i	!	!	!LO:DY:b	!	!	!
4DD^>/ 4D	sf	(16d^\LL	[	8dd\ 8bb	8ddd^\ 8bbb	[ sf >
.	.	16c#X\J	.	.	.	.
!	!	!LO:TX:a:t=ten.:i	!	!	!	!
.	.	8d^\J)	sf	8dd\J 8bb	8ddd\J 8dddd	]]
*	*	*	*	*	*X8va	*
=99	=99	=99	=99	=99	=99	=99
*	*	*	*	*	*8va	*
!	!	!	!	!LO:LB:g=original	!LO:LB:g=original	!
8DDD/L 8DD	.	8r	.	8aa\L	8aaa\L	<
8GG'^>/ 8G	.	(16g^\LL	<	8cc\ 8aa	8ccc\ 8aaa 8cccc	.
.	.	16f#\)J	.	.	.	.
8FF#'/ 8F#	.	(16f#\L	.	8cc\ 8aa	8ccc\ 8aaa 8cccc	.
.	.	16fn\)J	.	.	.	.
8FFn'/J 8Fn	.	(16f\L	.	8cc\J 8aa	8ccc\J 8aaa 8cccc	.
.	.	16e\JJ)	.	.	.	.
=100	=100	=100	=100	=100	=100	=100
8EE'/L 8E	.	(16e\LL	.	8cc\L 8aa	8ccc\L 8aaa 8cccc	.
.	.	16e-X\)J	.	.	.	.
8EE-X'/J 8E-X	.	(16e-\L	.	8cc\ 8aa	8ccc\ 8aaa 8cccc	.
.	.	16d\JJ)	[	.	.	.
!LO:TX:a:t=ten.:i	!	!	!	!	!	!
4DD^>/ 4D	sf	(16d^\LL	.	8dd^\ 8bb	8ddd^\ 8bbb	[ sf
.	.	16c#X\J	.	.	.	.
!	!	!LO:TX:a:t=ten.:i	!LO:DY:b	!	!	!
.	.	8d^\J)	sf	8dd\J 8bb	8ddd\J 8dddd	.
=101	=101	=101	=101	=101	=101	=101
8r	.	8r	.	8cc'^\L	8ccc'^\L	.
!	!	!	!LO:DY:t=sempre ff:rj	!	!	!
8BBB-X'/ 8BB-X	.	8G'\ 8cn 8e	ff	(16ee\L	(16eee\L	.
.	.	.	.	16gg\JJ	16ggg\JJ	.
!LO:TX:a:t=ten.:i	!	!LO:TX:a:t=ten.:i	!	!	!	!
[4BBB-^>/ [4BB-	.	(4G^\ 4c 4e	sf	16ff#^\LL	16fff#^\LL	.
.	.	.	.	16aa\	16aaa\	.
.	.	.	.	16gg\	16ggg\	.
.	.	.	.	16ee\JJ	16eee\JJ	.
=102	=102	=102	=102	=102	=102	=102
8BBB-'/] 8BB-]	.	8fn'\)	.	8dd'\L)^	8ddd'\L)^	.
!LO:TX:a:t=ten.:i	!	!LO:TX:a:t=ten.:i	!	!	!	!
(4AAA^>/ 4AA	.	(4A^\ 4c 4f#X	sf	(16dd\L	(16ddd\L	.
.	.	.	.	16ee\JJ	16eee\JJ	.
.	.	.	.	16dd^\LL	16ddd^\LL	.
.	.	.	.	16b\	16bb\	.
8GGG'/) 8GG	.	8Bn'\) 8d 8g	.	16g\JJ)	16gg\JJ)	.
.	.	.	.	16r	16r	.
=103	=103	=103	=103	=103	=103	=103
8r	.	8r	.	(16gg^\LL	(16ggg^\LL	.
.	.	.	.	16ff#\	16fff#\	.
8BBB-X'/ 8BB-X	.	8G'\ 8c 8e	.	16gg\	16ggg\	.
.	.	.	.	16ccc\JJ	16cccc\JJ	.
!LO:TX:a:t=ten.:i	!	!LO:TX:a:t=ten.:i	!	!	!	!
[4BBB-^>/ [4BB-	.	(4G^\ 4c 4e	sf	16eee\LL	16eeee\LL	.
.	.	.	.	16ggg\	16gggg\	.
.	.	.	.	16eee\	16eeee\	.
.	.	.	.	16ccc\JJ	16cccc\JJ	.
=104	=104	=104	=104	=104	=104	=104
!LO:LB:g=original	!LO:LB:g=original	!	!	!	!	!
8BBB-/] 8BB-]	.	8fn'\)	.	16ddd^\LL	16dddd^\LL	.
.	.	.	.	16ccc\	16cccc\	.
!LO:TX:a:t=ten.:i	!	!LO:TX:a:t=ten.:i	!	!	!	!
(4AAA^>/ 4AA	.	(4A^\ 4c 4f#X	f	16ff#\	16fff#\	.
.	.	.	.	16ccc\JJ	16cccc\JJ	.
.	.	.	.	16dd\)	16ddd\LL	.
.	.	.	.	16r	16ggg\	.
8GGG'/) 8GG	.	8Bn'\) 8d 8g	.	8r	16bbb\	.
.	.	.	.	.	16dddd\JJ)	.
*	*	*	*	*	*X8va	*
=105	=105	=105	=105	=105	=105	=105
!	!	!	!	!LO:LB:g=original	!LO:LB:g=original	!
!	!	!	!LO:HP:t=dim.:ext=ud	!LO:TX:t=P:problem=mixed beam	!	!LO:HP:t=poco a poco dim.:ext=ud
8BBB-X'/ 8BB-XL	.	(16g\LL	>	16ryy	(16gg<^/LL	>
.	.	16f#\J	.	16ryy	16ff#</	.
!	!	!LO:TX:a:t=ten.:i	!	!	!	!
8r	.	[8G^\J) [8c [8e [8g	.	16ryy	16gg</	.
.	.	.	.	16ryy	16ccc\JJ	.
8BBB-/J 8BB-	.	8G\L] 8c] 8e] 8g]	.	(16ee\LL	16eee\LL	.
.	.	.	.	16gg\	16ggg\	.
8r	.	8G'\J 8c 8e	.	16ee\	16eee\	.
.	.	.	.	16cc\JJ	16ccc\JJ	.
=106	=106	=106	=106	=106	=106	=106
8AAA'/L 8AA	.	8fn'\	.	16dd\)	16ddd^\LL	.
.	.	.	.	16r	16ccc\	.
8r	.	(4A^\ 4c 4f#X	.	8r	16ff#\	.
.	.	.	.	.	16ccc\JJ	.
8GGG'/J 8GG	.	.	.	4r	16dd\LL	.
.	.	.	.	.	16gg\	.
8r	.	8Bn'\) 8d 8g	.	.	16bb\	.
.	.	.	.	.	16ddd\JJ)	.
=107	=107	=107	=107	=107	=107	=107
!	!	!	!	!LO:TX:t=P:problem=mixed beam	!	!
8GGG'/ 8GG	.	8r	p	16ryy	(16g<^/LL	p
.	.	.	.	16ryy	16f<#/	.
8r	.	8E\L 8B-X 8c	.	16ryy	16g</	.
.	.	.	.	16r	16cc\JJ	.
8GGG'/ 8GG	.	8r	.	4r	16ee\LL	.
.	.	.	.	.	16gg\	.
8r	.	8E\J 8B- 8c	.	.	16ee\	.
.	.	.	.	.	16cc\JJ	.
=108	=108	=108	=108	=108	=108	=108
8GGG'/ 8GG	.	8r	.	4r	16dd^>/LL	.
.	.	.	.	.	16cc/	.
8r	.	8F#\L 8A 8c	.	.	16f#/	.
.	.	.	.	.	16cc/JJ	.
!	!	!	!	!LO:TX:t=P:problem=mixed beam	!	!
8GGG'/ 8GG	.	8r	.	16ryy	16d</LL	.
.	.	.	.	16r	16g\	.
8r	.	8G\J 8Bn	.	8r	16b\	.
.	.	.	]]	.	16dd\JJ)	]]
=109	=109	=109	=109	=109	=109	=109
!	!	!	!	!LO:TX:t=P:problem=mixed beam	!	!
8GGG/L 8GG	.	8r	pp	16ryy	(16g<^/LL	pp
.	.	.	.	16ryy	16f#</	.
8GGG/ 8GG	.	8E\L 8B-X 8c	.	16ryy	16g</	.
.	.	.	.	16ryy	16cc\JJ	.
8GGG/ 8GG	.	8E\J 8B- 8c	.	4ryy	16ee\LL	.
.	.	.	.	.	16gg\	.
8GGG/J 8GG	.	8r	.	.	16ee\	.
.	.	.	.	.	16cc\JJ	.
=110	=110	=110	=110	=110	=110	=110
8GGG/L 8GG	.	2r	.	4ryy	16dd^\LL	.
.	.	.	.	.	16b\	.
8GGG/ 8GG	.	.	.	.	16g\	.
.	.	.	.	.	16b\JJ	.
!	!	!	!	!LO:TX:t=P:problem=mixed beam	!	!
8GGG/ 8GG	.	.	.	16ryy	16d</LL	.
.	.	.	.	8.ryy	16f#\	.
8GGG/J 8GG	.	.	.	.	16a\	.
.	.	.	.	.	16cc\JJ)	.
=111||	=111||	=111||	=111||	=111||	=111||	=111||
*	*	*	*	*clefF4	*	*
*k[b-e-]	*	*k[b-e-]	*	*k[b-e-]	*k[b-e-]	*
*	*	*	*	*^	*	*
!	!	!	!	!LO:PB:g=original	!LO:PB:g=original	!	!
*	*	*	*	*	*cue	*	*
!LO:PB:g=original	!	!LO:PB:g=original	!	!LO:TX:a:t=Secondo.	!	!	!
8GGG/L 8GG	.	2r	pp	2r	8GGG\L 8GG	2r	.
8GGG/ 8GG	.	.	.	.	8GGG\ 8GG	.	.
8GGG/ 8GG	.	.	.	.	8GGG\ 8GG	.	.
8GGG/J 8GG	.	.	.	.	8GGG\J 8GG	.	.
=112	=112	=112	=112	=112	=112	=112	=112
*	*	*	*	*	*^	*	*
*	*	*	*	*	*	*cue	*	*
8GGG/L 8GG	.	8D\L	.	2rf	8GGG\L 8GG	8D/L	2r	.
8GGG/ 8GG	.	8D\	.	.	8GGG\ 8GG	8D/	.	.
8GGG/ 8GG	.	8D\	.	.	8GGG\ 8GG	8D/	.	.
8GGG/J 8GG	.	8D\J	.	.	8GGG\J 8GG	8D/J	.	.
=113	=113	=113	=113	=113	=113	=113	=113	=113
*	*	*	*	*	*tremolo	*	*	*
8GGG/L 8GG	.	8D\L 8G	.	2rb	8GGG\L 8GG	8D/L 8G	2r	.
8GGG/ 8GG	.	8D\ 8G	.	.	8GGG\ 8GG	8D/ 8G	.	.
8GGG/ 8GG	.	8D\ 8G	.	.	8GGG\ 8GG	8D/ 8G	.	.
8GGG/J 8GG	.	8D\J 8G	.	.	8GGG\J 8GG	8D/J 8G	.	.
=114	=114	=114	=114	=114	=114	=114	=114	=114
*	*	*	*	*	*	*tremolo	*	*
8GGG/L 8GG	.	8D\L 8G 8d	.	2rdd	8GGG\L 8GG	8D/L 8G 8d	2r	.
8GGG/ 8GG	.	8D\ 8G 8d	.	.	8GGG\ 8GG	8D/ 8G 8d	.	.
8GGG/ 8GG	.	8D\ 8G 8d	.	.	8GGG\ 8GG	8D/ 8G 8d	.	.
8GGG/J 8GG	.	8D\J 8G 8d	.	.	8GGG\J 8GG	8D/J 8G 8d	.	.
*	*	*	*	*	*Xcue	*Xcue	*	*
*	*	*	*	*	*Xtremolo	*Xtremolo	*	*
*	*	*	*	*v	*v	*v	*	*
*	*	*	*	*clefG2	*	*
=115	=115	=115	=115	=115	=115	=115
8GGG/L' 8GG	.	8B-'\L 8d	.	4r	(16g/LL	pp
.	.	.	.	.	16a/	.
8D/'	.	8d'\	.	.	16b-/	.
.	.	.	.	.	16cc/JJ	.
8C/'	.	8c'\	.	8f#X/L	8dd'\L)	.
8AA/J'	.	8A'\J	.	8f#/J	8dd'\J	.
=116	=116	=116	=116	=116	=116	=116
8GG/L'	.	8G'\L	.	8g/L 8b-	8gg'\L	.
8BB-/'	.	8B-'\	.	8d/ 8g	8dd'\	.
8AA/'	.	8A'\	.	8d^>/ 8a	(8.dd^\	.
8FFn/J'	.	8Fn'\J	.	8d/J 8a	.	.
.	.	.	.	.	16cc\Jk	.
=117	=117	=117	=117	=117	=117	=117
!LO:LB:g=original	!	!LO:LB:g=original	!	!	!	!
8EEn/L'	.	8En'\L	.	8c#X/L	8b-'\L)	.
!	!	!	!	!	!LO:TUP:a	!
8GG/'	.	8G'\	.	8c#/	(24b-\L	.
.	.	.	.	.	24cc\	.
.	.	.	.	.	24b-\JJ	.
8FF#X/'	.	8F#X'\	.	8cn/	8a'/L)	.
8DD/J'	.	8D'\J	.	8c/J	8f#X'/J	.
=118	=118	=118	=118	=118	=118	=118
8CC/L'	.	8C'/L	.	4B-/	4g/	.
8EE-X/'	.	8E-X'/	.	.	.	.
8DD/'	.	8D'/	.	4d^>/	4r	.
8BBB-/J'	.	8BB-'/J	.	.	.	.
=119	=119	=119	=119	=119	=119	=119
!	!	!	!	!LO:LB:g=original	!LO:LB:g=original	!
8GGG/L 8GG	.	(4G\	>	(16g/LL	(16gg\LL	.
.	.	.	.	16a/	16aa\	.
8GGG/ 8GG	.	.	.	16b-/	16bb-\	.
.	.	.	.	16cc/JJ	16ccc\JJ	.
8GGG/ 8GG	.	8F#X\L 8f#X	.	8dd'\L)	8ddd'\L)	.
8GGG/J 8GG	.	8Fn\J 8fn	.	8dd'\J	8ddd'\J	.
=120	=120	=120	=120	=120	=120	=120
8GGG/L 8GG	.	4En\ 4en	.	8gg'\L	8ggg'\L	.
8GGG/ 8GG	.	.	.	8dd'\J	8ddd'\J	.
8GGG/ 8GG	.	4E-X\ 4e-X	.	(8.dd^\L	(8.ddd^\L	.
8GGG/J 8GG	.	.	.	.	.	.
.	.	.	.	16cc\Jk	16ccc\Jk	.
=121	=121	=121	=121	=121	=121	=121
8GGG/L 8GG	.	4D\ 4d	.	8b-'\L)	8bb-'\L)	.
!	!	!	!	!LO:TUP:a	!LO:TUP:a	!
8GGG/ 8GG	.	.	.	(24b-\L	(24bb-\L	.
.	.	.	.	24cc\	24ccc\	.
.	.	.	.	24b-\JJ	24bb-\JJ	.
8GGG/ 8GG	.	8C#X\L 8c#X	.	8a'/L)	8aa'\L)	.
8GGG/J 8GG	.	8Cn\J 8cn	.	8f#X'/J	8ff#X'\J	.
=122	=122	=122	=122	=122	=122	=122
8GGG/L 8GG	.	4BB-\ 4B-	.	4g/	4gg\	.
8GGG/ 8GG	.	.	.	.	.	.
8GGG/ 8GG	.	4AA\) 4A	]]	4d^>/ 4a	4aa^\	.
8GGG/J 8GG	.	.	.	.	.	.
=123	=123	=123	=123	=123	=123	=123
!LO:LB:g=original	!	!LO:LB:g=original	!LO:DY:t=sempre pp	!	!	!
8FF/L	.	8D\L 8A	pp	(16d/LL	(16dd\LL	.
.	.	.	.	16en/	16een\	.
8FF/	.	8D\ 8A	.	16f/	16ff\	.
.	.	.	.	16g/JJ	16gg\JJ	.
8EEn/ 8C#X	.	8G\ 8A	.	8a'/L)	8aa'\L)	.
8EE/J 8C#	.	8G\J 8A	.	8a'/J	8aa'\J	.
=124	=124	=124	=124	=124	=124	=124
8DD/L 8D	.	8F\L 8A	.	8dd'/L	8ddd'\L	.
8DD/ 8D	.	8F\ 8A	.	8a'/	8aa'\	.
8DD/ 8AA	.	8En\ 8c#X	.	(8.a^>/	(8.aa^\	.
8DD/J 8AA	.	8E\J 8c#	.	.	.	.
.	.	.	.	16g/Jk	16gg\Jk	.
=125	=125	=125	=125	=125	=125	=125
!	!	!	!	!LO:LB:g=original	!LO:LB:g=original	!
8DD/L 8AA	.	8F\L 8d	.	8f'/L)	8ff'\L)	.
!	!	!	!	!LO:TUP:b	!LO:TUP:a	!
8DD/ 8AA	.	8F\ 8A	.	(24f/L	(24ff\L	.
.	.	.	.	24g/	24gg\	.
.	.	.	.	24f/JJ	24ff\JJ	.
8DD/ 8AA	.	8G\ 8A	.	8en'/L)	8een'\L)	.
8DD/J 8AA	.	8G\J 8A	.	8c#X'/J	8cc#X'\J	.
=126	=126	=126	=126	=126	=126	=126
8DD/L 8AA	.	8F\L 8A	.	4d/	4dd\	.
8DD/ 8AA	.	8F\ 8A	.	.	.	.
8DD/ 8AA	.	8G\ 8A	.	4a^>/	4r	.
8DD/J 8AA	.	8G\J 8A	.	.	.	.
=127	=127	=127	=127	=127	=127	=127
8DD/L 8D	.	8F\L 8A	.	(16d/LL	(16dd\LL	.
.	.	.	.	16en/	16een\	.
8DD/ 8D	.	8F\ 8A	.	16f/	16ff\	.
.	.	.	.	16g/JJ	16gg\JJ	.
8CCn/ 8Cn	.	8En\ 8A	.	8a'/L)	8aa'\L)	.
8CC/J 8C	.	8E\J 8A	.	8a'/J	8aa'\J	.
=128	=128	=128	=128	=128	=128	=128
8BBBn/L 8BBn	.	8F\L 8A	.	8dd'/L	8ddd'\L	.
8BBB/ 8BB	.	8F\ 8A	.	8a'/	8aa'\	.
8CC#X/ 8C#X	.	8En\ 8A	.	(8.a^>/	(8.aa^\	.
8CC#/J 8C#	.	8E\J 8A	.	.	.	.
.	.	.	.	16g/Jk	16gg\Jk	.
=129	=129	=129	=129	=129	=129	=129
!LO:LB:g=original	!	!LO:LB:g=original	!	!	!	!
8DD'/L 8D	.	8F'\L 8A	.	8f'/L)	8ff'\L)	.
8FFF'/ 8FF	.	8D'\ 8A	.	(16f/L	(16ff\L	.
.	.	.	.	16a/JJ	16aa\JJ	.
8r	.	8r	.	8g'/L)	8gg'\L)	.
8GGG'/J 8GG	.	8En'\J 8B-	.	8en'/J	8een'\J	.
=130	=130	=130	=130	=130	=130	=130
8r	.	8r	.	(16f/LL	(16ff\LL	.
.	.	.	.	16en/J	16een\J	.
8GGG#X'/ 8GG#X	.	8F'\ 8Bn	.	8d'/J)	8dd'\J)	.
!	!	!LO:TX:a:t=ten.:i	!	!	!	!
!LO:TX:a:t=ten.:i	!	!LO:TX:b:t=très long.:i	!	!	!LO:TX:b:t=très long	!
4AAA^>;/ 4AA	.	4En;^\ 4c#X	.	4e^>;/ 4a	4cc#X^;\ 4aa	.
=131	=131	=131	=131	=131	=131	=131
!	!	!	!	!LO:LB:g=original	!LO:LB:g=original	!
16DD/LL	.	8F\L 8d	p	2r	8r	.
16AA/	.	.	.	.	.	.
.	.	8qf/	.	.	.	.
16DD/	.	8G^\ 8en	.	.	(16a/LL	p
16AA/JJ	.	.	.	.	16b-/JJ	.
16AAA/LL	.	8F\ 8d	.	.	4a^>/)	.
16AA/	.	.	.	.	.	.
16AAA/	.	8En\J 8c#X	.	.	.	.
16AA/JJ	.	.	.	.	.	.
=132	=132	=132	=132	=132	=132	=132
16DD/LL	.	8F\L 8d	.	8f/L	8dd\L	.
16AA/	.	.	.	.	.	.
.	.	.	.	.	(8qff/	.
16DD/	.	8G^\	.	8en^>/ 8g	8een^\)	.
16AA/JJ	.	.	.	.	.	.
16AAA/LL	.	8F\	.	8d/ 8f	8dd\	.
16AA/	.	.	.	.	.	.
16AAA/	.	8En\J	.	8c#X/J 8e	8cc#X\J	.
16AA/JJ	.	.	.	.	.	.
=133	=133	=133	=133	=133	=133	=133
8DD'/L	.	8F'\L 8A	.	8d'/L 8f	8dd'\L	<
8DD'^>/ 8AA	.	8F'^\ 8d	.	8f'/	8ff'\	.
8r	.	8F'\ 8d	.	(8.a/	(8.aa\^	.
8AAA'^>/J 8AA	.	8En'^\J 8c#X	.	.	.	[
.	.	.	.	16g/Jk	16gg\Jk	.
=134	=134	=134	=134	=134	=134	=134
8r	.	8F'\L 8d	.	8f'/L)	8ff'\L)	.
8DD'/L 8AA	.	8F'\ 8A	.	8f'/J	8ff'\J	.
8AAA'/ 8AA	.	8G'\ 8A	.	(16en/LL	(16een\LL	.
.	.	.	.	16c#X/J	16cc#X\J	.
8DD'/J 8AA	.	8F'\J 8A	.	8d'/J)	8dd'\J)	.
=135	=135	=135	=135	=135	=135	=135
!LO:LB:g=original	!	!LO:LB:g=original	!LO:HP:t=cresc.:ext=ud	!	!	!
16GG/LL	.	8G\L 8B-	<	8g/L	8r	.
16D/	.	.	.	.	.	.
.	.	.	.	(8qb-/	.	.
!	!	!	!	!	!	!LO:HP:t=cresc.:ext=ud
16GG/	.	8A^\ 8c	.	8a^/)	(16dd\LL	<
16D/JJ	.	.	.	.	16ee-X\JJ	.
16DD/LL	.	8G\ 8B-	.	8g/	4dd^\)	.
16D/	.	.	.	.	.	.
16DD/	.	8F#X\J 8A	.	8f#X/J	.	.
16D/JJ	.	.	.	.	.	.
=136	=136	=136	=136	=136	=136	=136
16GG/LL	.	8G\L 8B-	.	8g/	8gg\L	.
16D/	.	.	.	.	.	.
.	.	.	.	.	(8qbb-/	.
16GG/	.	8A^\ 8c	.	4d^>/ 4dd	8aa\)	.
16D/JJ	.	.	.	.	.	.
16DD/LL	.	8G\ 8B-	.	.	8gg\	.
16D/	.	.	.	.	.	.
16DD/	.	8F#X\J 8A	.	8d^>/ 8dd	8ff#X\J	.
16D/JJ	.	.	.	.	.	.
=137	=137	=137	=137	=137	=137	=137
!	!	!	!	!LO:LB:g=original	!LO:LB:g=original	!
8GG'/L	.	8G\L 8B-	.	8g'\L	8gg'\L	.
8GG'^>/ 8D	.	8G'^\ 8B-	.	8b-'\	8bb-'\	.
8r	.	8r	.	(8.dd^\	(8.ddd\^	.
8CC'^>/J 8C	.	8G'^\J 8e- 8g	.	.	.	.
.	.	.	.	16cc\Jk	16ccc\Jk	.
=138	=138	=138	=138	=138	=138	=138
8r	.	8r	.	8b-'\L)	8bb-'\L)	.
8GG'/L 8D	.	8B-'\L 8d	.	8b-'\J	8bb-'\J	.
8DD'/ 8D	.	8A'\ 8c	.	(16a/LL	(16aa\LL	.
.	.	.	.	16f#X/J	16ff#X\J	.
8GG'/J 8D	.	8B-'\J 8d	[[	8g'/J)	8gg'\J)	[[
=139	=139	=139	=139	=139	=139	=139
16CC/LL	.	8E-\L 8c	f	8g/L	8cc\L	f
16GG/	.	.	.	.	.	.
.	.	.	.	.	8qee-/	.
16CC/	.	8F^\ 8d	.	8fn^>/ 8g	8dd^\	.
16GG/JJ	.	.	.	.	.	.
16GGG/LL	.	8E-\ 8c	.	8e-/	8cc\	.
16GG/	.	.	.	.	.	.
16GGG/	.	8D\J 8Bn	.	8d^>/J 8g	8bn\J	.
16GG/JJ	.	.	.	.	.	.
=140	=140	=140	=140	=140	=140	=140
!	!	!	!	!LO:TX:t=P:problem=mixed beam	!	!
16CC/LL	.	8E-\L 8c	<	8e-/L	8cc/L	.
16GG/	.	.	.	.	.	.
16CC/	.	8F^\ 8d	.	16f>\Jk 16dd>	16rbb	.
16GG/JJ	.	.	.	16rf>	16ff/Jk 16ddd	.
16GGG/LL	.	8E-\ 8c	.	16e->\LL 16cc>	16rbb	<
16GG/	.	.	.	16rf>	16ee-/LL 16ccc	.
16GGG/	.	8D\J 8Bn	[[	16d>\JJ 16bn>	16rbb	.
16GG/JJ	.	.	.	16rf>	16dd/JJ 16bbn	[[
=141	=141	=141	=141	=141	=141	=141
!LO:LB:g=original	!	!LO:LB:g=original	!	!	!	!
8CC'/L	.	8E-'\L 8c	ff	8e-'/L 8cc	8ee-\L 8ccc'	ff <
8CC'^>/J 8GG	.	8E-'^\J 8c	.	8g'/J 8ee-	8gg\J 8eee-'	.
8r	.	8r	.	(8.ee-^\L 8.gg	(8.eee-^\L 8.ggg	[ sf
8GGG'^>/ 8GG	.	8G'^\ 8e- 8g	.	.	.	.
.	.	.	.	16dd\Jk 16ff	16ddd\Jk 16fff	.
=142	=142	=142	=142	=142	=142	=142
!	!	!	!	!LO:LB:g=original	!LO:LB:g=original	!
8r	.	8r	.	8cc'\L) 8ee-	8ccc'\L) 8eee-	.
8AAA^>/L 8AA	.	8G^\L 8e- 8g	<	8cc'\ 8ee-	8ccc'\J 8eee-	.
8BBBn^>/ 8BBn	.	8G^\ 8d 8f 8g	.	8dd'\	(16ddd\LL	.
.	.	.	.	.	16gg\J	.
8CC^>/J 8C	.	8G^\J 8c 8e- 8g	[[	8cc'\J	8ccc'\J)	.
=143	=143	=143	=143	=143	=143	=143
8DD'/L 8D	.	8B-'\L 8d	sf <	(8.g^>/L 8.b-	(8.gg^\L 8.bb-	.
(16DD/L	.	(16D\L	.	.	.	.
16EEn/JJ	.	16En\JJ	.	16dd/Jk	16ddd\Jk	.
16FF#X/LL	.	16F#X\LL	.	16cc/LL	16ccc\LL	.
16GG/	.	16G\	.	16b-/	16bb-\	.
16AA/	.	16A\	.	16a/	16aa\	.
16BB-/JJ	.	16B-\JJ	.	16g/JJ	16gg\JJ	.
=144	=144	=144	=144	=144	=144	=144
8C/L)	.	8c\L)	.	8b-'/L)	8bb-'\L)	.
8CC#X'/ 8C#X	.	8c#X'\	.	8b-'/J	8bb-'\J	.
8DD'/ 8D	.	8d'\	.	16a/LL	(16aa\LL	.
.	.	.	.	16f#X/J	16ff#X\J	.
8EE-'/J 8E-X	.	8e-X'\J	[[	8g'/J	8gg'\J)	.
=145	=145	=145	=145	=145	=145	=145
8DD'/L 8D	.	8B-'\L 8d	sf <	(8.g^>/L 8.b-	(8.gg^\L 8.bb-	.
(16DD/L	.	(16D\L	.	.	.	.
16EEn/JJ	.	16En\JJ	.	16dd/Jk	16ddd\Jk	.
16FF#X/LL	.	16F#X\LL	.	16cc/LL	16ccc\LL	.
16GG/	.	16G\	.	16b-/	16bb-\	.
16AA/	.	16A\	.	16a/	16aa\	.
16BB-/JJ	.	16B-\JJ	.	16g/JJ	16gg\JJ	.
=146	=146	=146	=146	=146	=146	=146
8C/L)	.	8c\L)	.	8b-'/L)	8bb-'\L)	.
8CC#X'/ 8C#X	.	8c#X'\	.	8b-'/J	8bb-'\J	.
8DD'/ 8D	.	8d'\	.	(16a/LL	(16aa\LL	.
.	.	.	.	16f#X/J	16ff#X\J	.
8EE-X'/J 8E-X	.	8e-X'\J	[[	8g'/J)	8gg'\J)	.
=147	=147	=147	=147	=147	=147	=147
*8ba	*	*	*	*	*	*
!LO:PB:g=original	!	!LO:PB:g=original	!	!LO:PB:g=original	!LO:PB:g=original	!
8FFF#X'/L	.	8r	.	8f#X'/L	8ff#X'\L	.
8DDD'^>/	.	8D'\ 8A 8c	sf	8d'^>/J	8dd'^\J	sf
8GGG'/	.	8r	.	(16b-/LL	(16bb-\LL	.
.	.	.	.	16a/J	16aa\J	.
8DDD'^>/J	.	8D'\ 8G 8B- 8d	sf	8g'/J)	8gg'\J)	.
=148	=148	=148	=148	=148	=148	=148
8AAA'/L	.	8r	.	8a'/L	8aa'\L	.
8DDD'^>/	.	8D'^\ 8F#X 8c 8d	sf	8dd'^>/J	8ddd'^\J	sf
8BBB-'/	.	8r	.	(16b-/LL	(16bb-\LL	.
.	.	.	.	16a/J	16aa\J	.
8DDD'^>/J	.	8D'^\ 8G 8B- 8d	sf	8g'/J)	8gg'\J)	.
=149	=149	=149	=149	=149	=149	=149
8CC'/L	.	8r	.	8f#X'/L	8ff#X'\L	.
8DDD'^>/	.	8D'\ 8F#X 8A	sf	8d'^>/J	8dd'^\J	sf
8BBB-'/	.	8r	.	(16b-/LL	(16bb-\LL	.
.	.	.	.	16a/J	16aa\J	.
8DDD'^>/J	.	8D'^\ 8G 8B- 8d	sf	8g/J)	8gg'\J)	.
=150	=150	=150	=150	=150	=150	=150
8AAA'/L	.	8r	.	(16f#X/LL	(16ff#X\LL	.
.	.	.	.	16d/J	16dd\J	.
8DDD'/J	.	8D'^\ 8F#X 8c	sf	8f#'/J)	8ff#'\J)	.
*X8ba	*	*	*	*	*	*
8GGG'/ 8GG	.	8D'^\ 8G 8B- 8d	sf	4g^>/	4gg^\	sf
8r	.	8r	.	.	.	.
=151	=151	=151	=151	=151	=151	=151
!	!	!	!LO:DY:t= sf sempre	!	!	!LO:DY:t=sf sempre
8GGG/L 8GG	.	(8.B-^\L	sf	(8.g^\L 8.b-	(8.gg^\L 8.bb-	sf
8GGG/ 8GG	.	.	.	.	.	.
.	.	16d\Jk	.	16dd\Jk	16ddd\Jk	.
8GGG/ 8GG	.	16c\LL	ff	16cc/LL	16ccc\LL	.
.	.	16B-\	.	16b-/	16bb-\	.
8GGG/J 8GG	.	16A\	.	16a/	16aa\	ff
.	.	16G\JJ	.	16g/JJ	16gg\JJ	.
=152	=152	=152	=152	=152	=152	=152
8GGG/L 8GG	.	8B-'\L)	.	8b-'\L)	8bb-'\L)	.
8GGG/ 8GG	.	8B-'\J	.	8b-'\J	8bb-'\J	.
8GGG/ 8GG	.	(16A\LL	.	(16a/LL	(16aa\LL	.
.	.	16F#X\J	.	16f#X/J	16ff#X\J	.
8GGG/J 8GG	.	8G'\J)	.	8g'/J)	8gg'\J)	.
=153	=153	=153	=153	=153	=153	=153
!	!	!	!	!LO:LB:g=original	!LO:LB:g=original	!
8GGG/L 8GG	.	(2Fn^\ 2fn	sf	(8.b-^\L	(8.bb-^\L	sf
8GGG/ 8GG	.	.	.	.	.	.
.	.	.	.	16dd\Jk	16ddd\Jk	.
8GGG/ 8GG	.	.	.	16cc/LL	16ccc\LL	.
.	.	.	.	16b-/	16bb-\	.
8GGG/J 8GG	.	.	.	16a/	16aa\	.
.	.	.	.	16g/JJ	16gg\JJ	.
=154	=154	=154	=154	=154	=154	=154
!LO:LB:g=original	!	!LO:LB:g=original	!	!	!	!
8GGG/L 8GG	.	4En\ 4en	.	8b-'\L)	8bb-'\L)	.
8GGG/ 8GG	.	.	.	8b-'\J	8bb-'\J	.
8GGG/ 8GG	.	4E-X\ 4e-X	.	(16a/LL	(16aa\LL	.
.	.	.	.	16f#X/J	16ff#X\J	.
8GGG/J 8GG	.	.	.	8g'/J)	8gg'\J)	.
=155	=155	=155	=155	=155	=155	=155
*	*	*^	*	*	*	*
8GGG/L 8GG	.	8d'/L)	4D\	.	8f#X'/	8ff#X'\L	.
8GGG/ 8GG	.	8d'/J	.	.	8r	8dd'^\J	sf
8GGG/ 8GG	.	(4c#X\	4C#X\	.	(16b-/LL	(16bb-\LL	.
.	.	.	.	.	16a/J	16aa\J	.
8GGG/J 8GG	.	.	.	.	8g'/J)	8gg'\J)	.
*	*	*v	*v	*	*	*	*
=156	=156	=156	=156	=156	=156	=156
8GGG/L 8GG	.	4Cn\ 4cn	.	8a'\L	8aa'\L	.
8GGG/ 8GG	.	.	.	8dd'^\J	8ddd'^\J	sf
8GGG/ 8GG	.	4BB-\ 4B-	.	(16b-/LL	(16bb-\LL	.
.	.	.	.	16a/J	16aa\J	.
8GGG/J 8GG	.	.	.	8g'/J)	8gg'\J)	.
=157	=157	=157	=157	=157	=157	=157
8GGG/L 8GG	.	4AA\ 4A	.	8f#X'/L	8ff#X'\L	.
8GGG/ 8GG	.	.	.	8d'/J	8dd'^\J	sf
!LO:TX:a:t=m.g.	!	!LO:TX:t=P:problem=klamra spinająca dźwięk GG w obu pięcioliniach	!	!	!	!
8GGG/ 8GG	.	4GG/ 4G	.	(16b-/LL	(16bb-\LL	.
.	.	.	.	16a/J	16aa\J	.
8GGG/J 8GG	.	.	.	8g'/J)	8gg'\J)	.
=158	=158	=158	=158	=158	=158	=158
8GGG/L 8GG	.	4AA\ 4A	.	(16f#X/LL	(16ff#X\LL	.
.	.	.	.	16d/J	16dd\J	.
8GGG/ 8GG	.	.	.	8f#'/J)	8ff#'\J)	.
8GGG/ 8GG	.	4BB-\) 4B-	.	4g^>/	4gg^\	sf
8GGG/J 8GG	.	.	.	.	.	.
=159	=159	=159	=159	=159	=159	=159
!	!	!	!	!LO:LB:g=original	!LO:LB:g=original	!
8GGG/L 8GG	.	(2d\	p <	2r	(8.b-^\L	p
8GGG/ 8GG	.	.	.	.	.	.
.	.	.	.	.	16dd\Jk	.
8GGG/ 8GG	.	.	.	.	16cc/LL	.
.	.	.	.	.	16b-/	.
8GGG/J 8GG	.	.	.	.	16a/	.
.	.	.	.	.	16g/JJ	.
=160	=160	=160	=160	=160	=160	=160
8GGG/L 8GG	.	4c#X\	.	2r	8b-'\L)	.
8GGG/ 8GG	.	.	.	.	8b-'\J	.
8GGG/ 8GG	.	4d\)	.	.	(16a/LL	.
.	.	.	.	.	16f#X/J	.
8GGG/J 8GG	.	.	.	.	8g'/J)	.
=161	=161	=161	=161	=161	=161	=161
8GGG/L 8GG	.	(2f^\	.	2r	(8.b-^\L	.
8GGG/ 8GG	.	.	.	.	.	.
.	.	.	.	.	16dd\Jk	.
8GGG/ 8GG	.	.	.	.	16cc/LL	.
.	.	.	.	.	16b-/	.
8GGG/J 8GG	.	.	.	.	16a/	.
.	.	.	[	.	16g/JJ	.
=162	=162	=162	=162	=162	=162	=162
!LO:LB:g=original	!	!LO:LB:g=original	!	!	!	!
8GGG/L 8GG	.	(4en\)	>	2r	8b-'\L)	.
8GGG/ 8GG	.	.	.	.	8b-'\J	.
8GGG/ 8GG	.	4e-X\	.	.	(16a/LL	.
.	.	.	.	.	16f#X/J	.
8GGG/J 8GG	.	.	.	.	8g'/J)	.
=163	=163	=163	=163	=163	=163	=163
8GGG/L 8GG	.	8d'\L)	.	2r	8f#X'/	.
8GGG/ 8GG	.	8d'\J	.	.	8r	.
8GGG/ 8GG	.	4c#X\	]]	.	(16b-/LL	.
.	.	.	.	.	16a/J	.
8GGG/J 8GG	.	.	.	.	8g'/J)	.
=164	=164	=164	=164	=164	=164	=164
8GGG/L 8GG	.	4cn\	.	2r	8a'\L	.
8GGG/ 8GG	.	.	.	.	8dd'\J	.
8GGG/ 8GG	.	4B-\	.	.	(16b-/LL	.
.	.	.	.	.	16a/J	.
8GGG/J 8GG	.	.	.	.	8g'/J)	.
=165	=165	=165	=165	=165	=165	=165
8GGG/L 8GG	.	4A\	.	2r	8f#X'/L	.
8GGG/ 8GG	.	.	.	.	8d'/J	.
8GGG/ 8GG	.	4G\	.	.	(16b-/LL	.
.	.	.	.	.	16a/J	.
8GGG/J 8GG	.	.	.	.	8g'/J)	.
=166	=166	=166	=166	=166	=166	=166
!	!	!	!	!LO:LB:g=original	!LO:LB:g=original	!
8GGG/L 8GG	.	4A\	.	2r	(16f#X/LL	.
.	.	.	.	.	16d/J	.
8GGG/ 8GG	.	.	.	.	8f#'/J)	.
8GGG/ 8GG	.	4B-\	.	.	8g'\L	.
8GGG/J 8GG	.	.	.	.	8gg'\J	.
=167	=167	=167	=167	=167	=167	=167
!	!	!	!LO:DY:t=pp sempre	!	!	!
8GGG'/L 8GG	.	(16c\LL 16f#X	pp	4r	4r	.
.	.	16d\J	.	.	.	.
8GGG'/ 8GG	.	8f#\J)'	.	.	.	.
*	*	*	*	*	*8va	*
!	!	!LO:TX:t=accel. sin al Tempo I.:i:b	!	!	!	!LO:DY:t=pp sempre
8r	.	8Bn\L 8g'	.	8gg'\	8ggg'\L	pp
8GGG'/J 8GG	.	8B\J 8g'	.	8r	8ggg'\J 8gggg	.
=168	=168	=168	=168	=168	=168	=168
8GGG'/L 8GG	.	(16B-X\LL 16en	.	4r	4r	.
.	.	16c\J	.	.	.	.
!	!	!	!	!	!LO:TX:t=accel. sin al Tempo I.:i:b	!
8GGG'/ 8GG	.	8e\J)'	.	.	.	.
8r	.	8A\L 8fn'	.	8ff'\	8fff'\L	.
8GGG'/J 8GG	.	8A\J 8f'	.	8r	8fff'\J 8ffff	.
=169	=169	=169	=169	=169	=169	=169
!LO:LB:g=original	!	!LO:LB:g=original	!	!	!	!
8r	.	(16A-X\LL 16d^	.	4r	4r	.
.	.	16B-\J	.	.	.	.
8GGG'/L 8GG	.	8d\J)'	.	.	.	.
8r	.	8G\L 8e-X'	.	8ee-'\	8eee-'\L	.
8GGG'/J 8GG	.	8G\J 8e-'	.	8r	8eee-'\J 8eeee-	.
=170	=170	=170	=170	=170	=170	=170
8r	.	(16F#X\LL 16c#X^	.	4r	4r	.
.	.	16A\J	.	.	.	.
8GGG'/L 8GG	.	8c#\J')	.	.	.	.
8GGG'/ 8GG	.	8Fn\L 8d'	.	8dd'\	8ddd'\L	.
8GGG'/J 8GG	.	8F\J 8d'	.	8r	8ddd'\J 8dddd	.
=171	=171	=171	=171	=171	=171	=171
8GGG'/L 8GG	.	(16c\LL 16f#X^	.	4r	4r	.
.	.	16d\J	.	.	.	.
8GGG'/ 8GG	.	8f#\J)'	.	.	.	.
8r	.	8Bn\L 8g'	.	8gg'\	8ggg'\L	.
8GGG'/J 8GG	.	8B\J 8g'	.	8r	8ggg'\J 8gggg	.
=172	=172	=172	=172	=172	=172	=172
8GGG'/L 8GG	.	(16B-X\LL 16en^	.	4r	4r	.
.	.	16c\J	.	.	.	.
8GGG'/ 8GG	.	8e\J)'	.	.	.	.
8r	.	8A\L 8fn'	.	8ff'\	8fff'\L	.
8GGG'/J 8GG	.	8A\J 8f'	.	8r	8fff'\J 8ffff	.
=173	=173	=173	=173	=173	=173	=173
8r	.	(16A-X\LL 16d^	.	4r	4r	.
.	.	16B-\J	.	.	.	.
8GGG'/L 8GG	.	8d\J)'	.	.	.	.
8r	.	8G\L 8e-X'	.	8ee-'\	8eee-'\L	.
8GGG'/J 8GG	.	8G\J 8e-'	.	8r	8eee-'\J 8eeee-	.
*	*	*	*	*	*X8va	*
=174	=174	=174	=174	=174	=174	=174
!	!	!	!	!LO:LB:g=original	!LO:LB:g=original	!
8r	.	(16F#X\LL 16c#X	.	4r	4r	.
.	.	16A\J	.	.	.	.
8GGG'/L 8GG	.	8c#\J)'	.	.	.	.
*	*	*	*	*	*8va	*
8GGG'/ 8GG	.	8Fn\L 8d'	.	8dd'\	8ddd'\L	.
8GGG'/J 8GG	.	8F\J 8d'	.	8r	8ddd'\J 8dddd	.
*	*	*	*	*	*X8va	*
=175	=175	=175	=175	=175	=175	=175
8GGG'/L 8GG	.	(16F\LL 16Bn	.	4r	4r	.
.	.	16G\J	.	.	.	.
8GGG'/ 8GG	.	8B\J)'	.	.	.	.
8r	.	8E-\L 8c'	.	8g'/	8gg'\L	.
8GGG'/J 8GG	.	8E-\J 8c	.	8r	8gg'\J 8ggg	.
=176	=176	=176	=176	=176	=176	=176
!LO:LB:g=original	!	!LO:LB:g=original	!	!	!	!
8r	.	(16F#X\LL 16c#X	.	4r	4r	.
.	.	16A\J	.	.	.	.
8GGG'/L 8GG	.	8c#'\J)	.	.	.	.
*	*	*	*	*	*8va	*
8GGG'/ 8GG	.	8Fn'\L 8d	.	8dd'\	8ddd'\L	.
8GGG'/J 8GG	.	8F'\J 8d	.	8r	8ddd'\J 8dddd	.
*	*	*	*	*	*X8va	*
=177	=177	=177	=177	=177	=177	=177
8GGG'/L 8GG	.	(16F\LL 16Bn	.	4r	4r	.
.	.	16G\J	.	.	.	.
8GGG'/ 8GG	.	8B'\J)	.	.	.	.
8r	.	8E-'\L 8c	.	8g'/	8gg'\L	.
8GGG'/J 8GG	.	8E-'\J 8c	.	8r	8gg'\J 8ggg	.
=178	=178	=178	=178	=178	=178	=178
8r	.	(16F#X\LL 16c#X	.	4r	4r	.
.	.	16A\J	.	.	.	.
8GGG'/L 8GG	.	8c#'\J)	.	.	.	.
*	*	*	*	*	*8va	*
8GGG'/ 8GG	.	8Fn'\L 8d	.	8dd'\	8ddd'\L	.
8GGG'/J 8GG	.	8F'\J 8d	.	8r	8ddd'\J 8dddd	.
*	*	*	*	*	*X8va	*
=179	=179	=179	=179	=179	=179	=179
8r	.	(16F\LL 16Bn	.	4r	4r	.
.	.	16G\J	.	.	.	.
8GGG'/L 8GG	.	8E-'\J) 8c	.	.	.	.
8r	.	(16F#X\LL 16c#X	.	8g'/	8gg'\L	.
.	.	16A\J	.	.	.	.
8GGG'/J 8GG	.	8Fn'\J) 8d	.	8r	8gg'\J 8ggg	.
=180	=180	=180	=180	=180	=180	=180
8r	.	(16F\LL 16Bn	.	4r	4r	.
.	.	16G\J	.	.	.	.
8GGG'/L 8GG	.	8E-'\J) 8cn	.	.	.	.
8GGG'/ 8GG	.	(16F#X\LL 16c#X	.	8g'/	8gg'\L	.
.	.	16A\J	.	.	.	.
8GGG'/J 8GG	.	8Fn'\J) 8d	.	8r	8gg'\J 8ggg	.
=181	=181	=181	=181	=181	=181	=181
8r	.	(16F\LL 16Bn	.	4r	4r	.
.	.	16G\J	.	.	.	.
8GGG'/L 8GG	.	8E-'\J) 8cn	.	.	.	.
8r	.	(16F#X\LL 16c#X	.	8g'/	8gg'\L	.
.	.	16A\J	.	.	.	.
8GGG'/J 8GG	.	8Fn'\J) 8d	.	8r	8gg'\J 8ggg	.
=182	=182	=182	=182	=182	=182	=182
!	!	!	!	!LO:LB:g=original	!LO:LB:g=original	!
8r	.	(16F\LL 16Bn	.	4r	4r	.
.	.	16G\J	.	.	.	.
8GGG'/L 8GG	.	8E-'\J) 8cn	.	.	.	.
8GGG'/ 8GG	.	(16F#X\LL 16c#X	.	8g'/	8gg'\L	.
.	.	16A\J	.	.	.	.
8GGG'/J 8GG	.	8Fn'\J) 8d	.	8r	8gg'\J 8ggg	.
=183	=183	=183	=183	=183	=183	=183
!LO:LB:g=original	!	!LO:LB:g=original	!	!	!	!
!	!	!LO:TX:a:t=Tempo I.:B	!	!	!LO:TX:a:t=Tempo I.:B	!
8GGG'/ 8GG	.	8G\ 8B-X 8d	.	(16g/LL	4r	pp <
.	.	.	.	16a/	.	.
8r	.	8r	.	16b-/	.	.
.	.	.	.	16cc/JJ	.	.
4r	.	4r	.	8dd'/L)	8r	.
.	.	.	.	8d'/J	8dd'\	[[
=184	=184	=184	=184	=184	=184	=184
(16GGG/LL	.	(16GG/LL	pp	8g'/L	8gg'\L	.
16AAA/	.	16AA/	.	.	.	.
16BBB-/	.	16BB-/	.	8d'/	8dd'\	.
16CC/JJ	.	16C/JJ	.	.	.	.
8DD'/L)	.	8D'\L)	.	(8.d^>/	(8.dd^\	.
8DD'/J	.	8D'\J	.	.	.	.
.	.	.	.	16c/Jk	16cc\Jk	.
=185	=185	=185	=185	=185	=185	=185
8GG'/L	.	8G'\L	.	8B-'/L)	8b-'\L)	.
!	!	!	!	!LO:TUP:b	!LO:TUP:a	!
8DD'/	.	8D'\	.	(24B-/L	(24b-\L	.
.	.	.	.	24c/	24cc\	.
.	.	.	.	24B-/JJ	24b-\JJ	.
(8.DD^>/	.	(8.D^\	.	8A'/L)	8a'/L)	.
.	.	.	.	8F#X'/J	8f#X'/J	.
16CC/Jk	.	16C\Jk	.	.	.	.
=186	=186	=186	=186	=186	=186	=186
8BBB-'/L)	.	8BB-/L)	.	8G'/	8g'/	.
(24BBB-/L	.	(24BB-/L	.	8r	8r	.
24CC/	.	24C/	.	.	.	.
24BBB-/JJ	.	24BB-/JJ	.	.	.	.
8AAA'/L)	.	8AA'/L)	.	8d'/	4r	.
8FFF#X'/J	.	8FF#X'/J	.	8r	.	.
=187	=187	=187	=187	=187	=187	=187
!	!	!	!LO:HP:t=cresc. molto	!	!	!LO:HP:t=cresc. molto
8GGG'/	.	8GG'/	<	4r	8g'/	<
8r	.	8r	.	.	8r	.
8DDD'^>/ 8DD	.	8D'^\	.	8d'^>/	8dd'^\	.
8r	.	8r	.	8r	8r	.
=188	=188	=188	=188	=188	=188	=188
8GGG'^>/ 8GG	.	8G'^\	<	8g'^>/	8gg'^\	<
8r	.	8r	.	8r	8r	.
8DDD'^>/ 8DD	.	8D'^\ 8d	.	8dd'\	8ddd'^\	.
8r	.	8r	[[	8r	8r	[[
=189	=189	=189	=189	=189	=189	=189
8GGG'^>/ 8GG	.	8D'^\ 8G 8B- 8d	sff	8g'\ 8b- 8dd	8gg'\ 8bb- 8ddd 8ggg	sff
8r	.	8r	.	8r	8r	.
4r	.	4r;	.	4r;	4r;	.
==	==	==	==	==	==	==
*-	*-	*-	*-	*-	*-	*-
!!!system-decoration: {(s1,s2)}{(s3,s4)}
!!!ENC: Andrzej Gręziak
!!!END: 2022-03-01
!!!AIN: 1 piano
!!!ENC: Krzysztof Stępień
!!!END: 2022-03-09
!!!RDF**kern: > = above
!!!RDF**kern: < = below
